!!!!SEGMENT: pl-wumfc--n2100--001_dobrzynski-ignacy-feliks--monbar-czyli-flibustierowie-partytura-fortepianowa-uwertura.krn
!!!cenid: 18xx:4184
!!!COM: Dobrzyński, Ignacy Feliks
!!!COM-rismID: pe30020642
!!!CDT: 1807/02/15-1867/10/09
!!!CNT: Polish
!!!GTL: Monbar czyli Flibustierowie - partytura fortepianowa
!!!OTL: Uwertura
!!!PDT: 1863
!!!AGN:
!!!SMS-siglum: PL-Wumfc
!!!SMS-shelfmark: N2100
!!!SMS-shelfwork: 001 G
!!!SMS-variant:
!!!SMS-altvar:
!!!NIFC-rismSourceID: 1001123412
!!!NIFC-rismChildID: 1001123412
!!!NIFC-islandoraID: pl-wumfc:1659
!!!URL-pdf-islandora: https://repozytorium.nifc.pl/islandora/object/pl-wumfc%3A1659/datastream/PDF/view
!!!OMD: Andante sostenuto.
!!!system-decoration: {(s1,s2)}
!!!AIN: 1 empty
!!!key:
**kern	**kern	**dynam
*part1	*part1	*part1
*staff2	*staff1	*
*Iempty	*Ipiano	*
*	*I"PIANO.	*
*clefF4	*clefG2	*
*k[b-]	*k[b-]	*
*d:	*d:	*
*M4/4	*M4/4	*
*met(c)	*met(c)	*
*>[A,B,B1,B,B2,C]	*>[A,B,B1,B,B2,C]	*
=1	=1	=1
*>A	*>A	*
!LO:TX:b:Bi:t=molto espressivo	!	!
!LO:TX:a:t=Clari. Basso.	!	!
!	!	!LO:DY:b=2:rj
(>2D\	1r	p
4AA/	.	.
!	!	!LO:HP:b=2
16GG#X/LL	.	<
16AA/	.	.
16D/	.	.
16E/JJ)	.	[[
=2	=2	=2
!	!	!LO:HP:b=2
(>4..F\	1r	>
16E\	.	]
4D\)	.	.
!	!	!LO:HP:b=2
(>16C#X\LL	.	<
16D\	.	.
16F\	.	.
16G\JJ)	.	[[
=3	=3	=3
!	!	!LO:DY:b=2:rj
[>4A\	1r	f
!LO:TUP:a	!	!
(>12A\L]	.	.
12G\	.	.
12F\J)	.	.
!LO:TX:a:t=P:problem:diminuendolike accent	!	!
!LO:TUP:a	!	!
(>12F^<\L	.	.
12E\	.	.
12D\J)	.	.
!LO:TX:a:t=P:problem:diminuendolike accent	!	!
!LO:TUP:a	!	!
(>12D^<\L	.	.
12C\	.	.
12BB-\J)	.	.
*	*clefF4	*
=4	=4	=4
*	*	*^
!	!	!	!LO:DY:b=2:rj
!	!	!	!LO:HP:b=2
(>2BB- &(<2BBB-/	4r	.	fz >
*	*tremolo	*	*
!	!LO:TX:a:Bi:t=trem.	!	!
.	32dLLL 32G#X 32E\	>	.
.	32d 32G# 32E\	.	.
.	32d 32G# 32E\	.	.
.	32d 32G# 32E\	.	.
.	32d 32G# 32E\	.	.
.	32d 32G# 32E\	.	.
.	32d 32G# 32E\	.	.
.	32dJJJ 32G# 32E\	.	.
*	*Xtremolo	*	*
4AA) 4AAA/&)	4c#X 4A 4E\	]	] p
4r	4r	.	.
!!LO:LB:g=original
*	*	*v	*v
=5	=5	=5
*	*clefG2	*
!	!	!LO:DY:b=2:rj
(>2D\	1r	p
4AA/	.	.
!	!	!LO:HP:b=2
16GG#X/LL	.	<
16AA/	.	.
16D/	.	.
16E/JJ)	.	[[
=6	=	=6
!	!	!LO:HP:b=2
(>4..F\	1r	>
16E\	.	]]
4D\)	.	.
!	!	!LO:HP:b=2
(>16C#X\LL	.	<
16D\	.	.
16F\	.	.
16G\JJ)	.	[[
=7	=7	=7
!	!	!LO:DY:b=2
[>4d\	1r	f
!LO:TUP:a	!	!
(>12d\L]	.	.
12G#X\	.	.
12A\J)	.	.
!LO:TX:a:t=P:problem:diminuendolike accent	!	!
!LO:TUP:a	!	!
(>12B-^<\L	.	.
12A\	.	.
12E\J)	.	.
!LO:TX:a:t=P:problem:diminuendolike accent	!	!
!LO:TUP:a	!	!
(>12Gn^<\L	.	.
12F\	.	.
12D\J)	.	.
*	*clefF4	*
=8	=8	=8
*	*	*^
!	!	!	!LO:DY:b=2:rj
!	!	!	!LO:HP:b=2
(>2D-X &(<2DD-X/	4r	.	fz >
*	*tremolo	*	*
!	!LO:TX:a:Bi:t=trem.	!	!
.	32BnLLL 32G 32F\	>	.
.	32B 32G 32F\	.	.
.	32B 32G 32F\	.	.
.	32B 32G 32F\	.	.
.	32B 32G 32F\	.	.
.	32B 32G 32F\	.	.
.	32B 32G 32F\	.	.
.	32BJJJ 32G 32F\	.	.
*	*Xtremolo	*	*
4C) 4CC/&)	4c 4G 4E\	]	]
4r	4r	.	.
*	*	*v	*v
=9	=9	=9
(>[<4EE/	2r	.
16EE/LL]	.	.
16GG/	.	.
16BBn/	.	.
16C/JJ)	.	.
*	*tremolo	*
!	!LO:TX:a:Bi:t=trem.	!
(<4D-X^>\	(>32B-XLLL 32G^<\	.
.	32E\	.
.	32B- 32G\	.
.	32E\	.
.	32B- 32G\	.
.	32E\	.
.	32B- 32G\	.
.	32E\	.
8C/)	32B- 32G\	.
.	32E\	.
.	32B- 32G\	.
.	32E\	.
8r	32B- 32G\	.
.	32E\	.
.	32B- 32G\	.
.	32E\JJJ)	.
*	*Xtremolo	*
!!LO:LB:g=original
=10	=10	=10
*	*clefG2	*
[<4FF/	2r	.
16FF/LL]	.	.
16AA-X/	.	.
16BBn/	.	.
16C/JJ	.	.
*	*clefF4	*
*	*tremolo	*
(>4D-X^>\	(>32A-X^<\LLL	.
.	32F\	.
.	32A-\	.
.	32F\	.
.	32A-\	.
.	32F\	.
.	32A-\	.
.	32F\	.
8C/)	32A-\	.
.	32F\	.
.	32A-\	.
.	32F\	.
8r	32A-\	.
.	32F\	.
.	32A-\	.
.	32F\JJJ)	.
*	*Xtremolo	*
=11	=11	=11
[<4FF#X/	2r	.
16FF#/LL]	.	.
16AA/	.	.
16C#X/	.	.
16D/JJ	.	.
*	*tremolo	*
(>4E-X^>\	(>32cLLL 32An^<\	.
.	32F#X\	.
.	32c 32A\	.
.	32F#\	.
.	32c 32A\	.
.	32F#\	.
.	32c 32A\	.
.	32F#\	.
8D\)	32c 32A\	.
.	32F#\	.
.	32c 32A\	.
.	32F#\	.
8r	32c 32A\	.
.	32F#\	.
.	32c 32A\	.
.	32F#\JJJ)	.
*	*Xtremolo	*
=12	=12	=12
[<4GG/	2r	.
16GG/LL]	.	.
16BB-/	.	.
16C#X/	.	.
16D/JJ	.	.
*	*tremolo	*
(>4E-X^>\	(>32B-^<\LLL	.
.	32G\	.
.	32B-\	.
.	32G\	.
.	32B-\	.
.	32G\	.
.	32B-\	.
.	32G\	.
8D\)	32B-\	.
.	32G\	.
.	32B-\	.
.	32G\	.
8r	32B-\	.
.	32G\	.
.	32B-\	.
.	32G\JJJ)	.
*	*Xtremolo	*
=13	=13	=13
!LO:TX:a:t=Tromboni	!	!
2B- 2BB-\	1r	.
4G 4GG/	.	.
4E-X 4EE-X/	.	.
*	*clefG2	*
=14	=14	=14
4.BB-X 4.BBB-X/	4r	.
!	!LO:TX:a:t=Tromb.	!
!	!LO:TX:b:t=Cor.	!
.	8r	.
!	!	!LO:DY:b:rj
8BB-'</	8b- 8a-X 8f 8B-/	pp
8E-X'</L	8b-L 8g 8e 8B-'</	.
8BB-'</	8b- 8a- 8d 8B-'</	.
8E-'</	8b- 8g 8e 8B-'</	.
8BB-'</J	8b-J 8a- 8f 8B-'</	.
!!LO:LB:g=original
=15	=15	=15
8E-X\	4b- 4g 4e-X 4B-/	.
!LO:TX:a:t=Clar. Basso	!	!
8r	.	.
(<2BB- 2BBB-/	4r	<
.	2r	[[
4AA 4AAA/	.	.
*	*clefF4	*
=16	=16	=16
*	*^	*
!	!LO:TX:a:t=Cor.\nFag.	!	!
1GG#X 1GGG#X^>)	2rBB	2ryy	.
.	&(>[>2dn/	2B- [<2F\	.
=17	=17	=17	=17
[>1AA [<1AAA	1d] 1F]	2A/	<
.	.	(>2G#X/	.
=18	=18	=18	=18
4AA] 4AAA/]	1Gn 1E	2d/)	[ >
2BB- 2BBB-^>/	.	.	.
.	.	2c#X/&)	]]
4AA 4AAA/	.	.	.
*	*clefG2	*clefG2	*
*	*v	*v	*
=19||	=19||	=19||
!!!OMD: Adagio molto espressivo.
*k[b-]	*k[b-]	*
*M4/4	*M4/4	*
*met(c)	*met(c)	*
*^	*	*
*Xtuplet	*Xtuplet	*	*
!	!	!LO:TUP:a:problem:klamra łukowa	!
!	!	!	!LO:DY:b:rj
24ALL 24F/	24DLL 24DD\	24d'</LL	p
24A 24F/	24D 24DD\	24d'</	.
24AJ 24F/	24DJ 24DD\	24d'</J	.
8AJ 8F/	8DJ 8DD\	8d'</J	.
24ALL 24F 24D'>\	2.ryy	4r	.
24A 24F 24D'>\	.	.	.
24AJ 24F 24D'>\	.	.	.
8AJ 8F 8D'>\	.	.	.
!	!	!LO:TX:a:t=Cor.	!
24ALL 24F 24D\	.	(<4f/	.
24A 24F 24D\	.	.	.
24AJ 24F 24D\	.	.	.
8AJ 8F 8D\	.	.	.
24ALL 24F 24D\	.	8.e/L	.
24A 24F 24D\	.	.	.
24AJ 24F 24D\	.	.	.
8AJ 8F 8D\	.	.	.
.	.	16f/Jk	.
!!LO:LB:g=original
*v	*v	*	*
=20	=20	=20
24ALL 24F 24D\	4d/	.
24A 24F 24D\	.	.
24AJ 24F 24D\	.	.
8AJ 8F 8D\	.	.
24ALL 24F 24D\	2d^>/	.
24A 24F 24D\	.	.
24AJ 24F 24D\	.	.
8AJ 8F 8D\	.	.
24B-LL 24F 24BB-\	.	.
24B- 24F 24BB-\	.	.
24B-J 24F 24BB-\	.	.
8B-J 8F 8BB-\	.	.
24B-LL 24F 24D 24BB-\	8.e/L)	.
24B- 24F 24D 24BB-\	.	.
24B-J 24F 24D 24BB-\	.	.
8B-J 8F 8D 8BB-\	.	.
.	16f/Jk	.
=21	=21	=21
*	*^	*
24FLL 24C 24AA 24FF/	(<4f^>/	2ryy	.
24F 24C 24AA 24FF/	.	.	.
24FJ 24C 24AA 24FF/	.	.	.
8FJ 8C 8AA 8FF/	.	.	.
24FLL 24C 24AA 24FF/	8c/)	.	.
24F 24C 24AA 24FF/	.	.	.
24FJ 24C 24AA 24FF/	.	.	.
8FJ 8C 8AA 8FF/	8r	.	.
*clefG2	*	*	*
!LO:TX:a:t=Fag.	!LO:TX:b:t=Clar.	!	!
!	!LO:TX:a:t=Ob.	!	!
(>2g 2e/	(>4cc#X/	2a\	.
.	8bn/L	.	.
.	8cc#/J	.	.
=22	=22	=22	=22
2f 2d/	4dd/)	2a\	.
.	(>4dd/	.	.
2d 2B-/)	4ff/	2g#X^<\	.
.	8.ee/L	.	.
.	16dd/Jk)	.	.
*clefF4	*	*	*
!!LO:PB:g=original
=23	=23	=23	=23
2e 2c#X 2A\	(>4a/	2a\	.
.	16qqccn/LL	.	.
.	16qqb-/JJ	.	.
.	8a/)	.	.
.	8r	.	.
!	!LO:TX:a:t=Cor.	!	!
24dLL 24A 24F 24D\	(<4f/	2ryy	.
24d 24A 24F 24D\	.	.	.
24dJ 24A 24F 24D\	.	.	.
8dJ 8A 8F 8D\	.	.	.
24ALL 24F 24D\	8.e/L	.	.
24A 24F 24D\	.	.	.
24AJ 24F 24D\	.	.	.
8AJ 8F 8D\	.	.	.
.	16f/Jk	.	.
*	*v	*v	*
=24	=24	=24
24ALL 24F 24D\	4d/	.
24A 24F 24D\	.	.
24AJ 24F 24D\	.	.
8AJ 8F 8D\	.	.
24ALL 24F 24D\	2d^>/)	.
24A 24F 24D\	.	.
24AJ 24F 24D\	.	.
8AJ 8F 8D\	.	.
24B-LL 24F 24D 24BB-\	.	.
24B- 24F 24D 24BB-\	.	.
24B-J 24F 24D 24BB-\	.	.
8B-J 8F 8D 8BB-\	.	.
24B-LL 24F 24D 24BB-\	8.e/L	.
24B- 24F 24D 24BB-\	.	.
24B-J 24F 24D 24BB-\	.	.
8B-J 8F 8D 8BB-\	.	.
.	16f/Jk	.
!!LO:LB:g=original
=25	=25	=25
*	*^	*
24FLL 24C 24AA 24FF/	(<4f^>/	2ryy	.
24F 24C 24AA 24FF/	.	.	.
24FJ 24C 24AA 24FF/	.	.	.
8FJ 8C 8AA 8FF/	.	.	.
24FLL 24C 24AA 24FF/	8c/)	.	.
24F 24C 24AA 24FF/	.	.	.
24FJ 24C 24AA 24FF/	.	.	.
8FJ 8C 8AA 8FF/	8r	.	.
*clefG2	*	*	*
!	!LO:TX:a:t=Flau.	!	!
2b- 2e/	(>4gg/	2cc\	<
.	8.ff/L	.	.
.	16gg/Jk	.	[[
=26	=26	=26	=26
*^	*	*	*
2a/	2f\	4aa/	2cc\	.
.	.	2ff/	.	.
*clefF4	*clefF4	*	*	*
4d/	2G\	.	2bn\	>
8.e/L	.	8.ee/L	.	.
16f/Jk	.	16dd/Jk)	.	]]
=27	=27	=27	=27	=27
2e/	2c\	(>4cc/	2g\	.
.	.	16qqee/LL	.	.
.	.	16qqdd/JJ	.	.
.	.	4cc/)	.	.
!	!	!LO:TX:a:t=Cor.	!	!
24ALL 24F#X 24C\	2ryy	(>4e-X/	2ryy	.
24A 24F# 24C\	.	.	.	.
24AJ 24F# 24C\	.	.	.	.
8AJ 8F# 8C\	.	.	.	.
24ALL 24F# 24C\	.	8.d/L	.	.
24A 24F# 24C\	.	.	.	.
24AJ 24F# 24C\	.	.	.	.
8AJ 8F# 8C\	.	.	.	.
.	.	16f#X/Jk	.	.
!!LO:LB:g=original
*v	*v	*	*	*
*	*v	*v	*
=28	=28	=28
24GLL 24D 24BB-\	4a/	.
24G 24D 24BB-\	.	.
24GJ 24D 24BB-\	.	.
8GJ 8D 8BB-\	.	.
24GLL 24D 24BB-\	4g/)	<
24G 24D 24BB-\	.	.
24GJ 24D 24BB-\	.	.
8GJ 8D 8BB-\	.	.
24dLL 24c 24A 24F#X\	(>4a/	.
24d 24c 24A 24F#\	.	.
24dJ 24c 24A 24F#\	.	[
8dJ 8c 8A 8F#\	.	.
.	16qqb-/LL	.
.	16qqa/JJ	.
24dLL 24c 24A 24F#\	8.g#X/L	.
24d 24c 24A 24F#\	.	.
24dJ 24c 24A 24F#\	.	.
8dJ 8c 8A 8F#\	.	.
.	16a/Jk	.
=29	=29	=29
*	*^	*
24dLL 24B- 24G\	4cc\	2ryy	>
24d 24B- 24G\	.	.	.
24dJ 24B- 24G\	.	.	.
8dJ 8B- 8G\	.	.	.
24dLL 24B- 24G\	4b-\)	.	]
24d 24B- 24G\	.	.	.
24dJ 24B- 24G\	.	.	.
8dJ 8B- 8G\	.	.	.
*clefG2	*	*	*
*tremolo	*	*	*
!LO:TX:a:Bi:t=trem.	!LO:TX:a:t=Ob.	!	!
32gLLL 32G/	(>4.bb-/	2dd\	<
32g 32G/	.	.	.
32g 32G/	.	.	.
32g 32G/	.	.	.
32g 32G/	.	.	.
32g 32G/	.	.	.
32g 32G/	.	.	.
32gJJJ 32G/	.	.	.
32aLLL 32A/	.	.	.
32a 32A/	.	.	.
32a 32A/	.	.	.
32a 32A/	.	.	.
32a 32A/	8aa/	.	.
32a 32A/	.	.	.
32a 32A/	.	.	.
32aJJJ 32A/	.	.	[[
*Xtremolo	*	*	*
=30	=30	=30	=30
2b- 2B-/	2gg#X/)	2dd\	.
*clefF4	*	*	*
!	!LO:TX:a:t=Flau.	!	!
2G#X 2D 2BB-\	4fff 4ff\	2ryy	.
.	16qqggg/LL	.	.
.	16qqfff/JJ	.	.
.	8eeeL 8ee\	.	.
.	8dddJ 8dd\	.	.
!!LO:LB:g=original
*	*v	*v	*
=31	=31	=31
8A 8C#X 8AA\	2aa 2a\	<
*tremolo	*	*
!LO:TX:a:Bi:t=trem.	!	!
32AALLL 32AAA/	.	.
32AA 32AAA/	.	.
32AA 32AAA/	.	.
32AA 32AAA/	.	.
32AA 32AAA/	.	.
32AA 32AAA/	.	.
32AA 32AAA/	.	.
32AA 32AAA/	.	.
32AA 32AAA/	.	.
32AA 32AAA/	.	.
32AA 32AAA/	.	.
32AAJJJ 32AAA/	.	.
!	!LO:TX:a:t=V.ni	!
32AALLL 32FF#X 32DD/	4fff#X 4ff#X\	[ ff
32D/	.	.
32AA 32FF# 32DD/	.	.
32D/	.	.
32AA 32FF# 32DD/	.	.
32D/	.	.
32AA 32FF# 32DD/	.	.
32D/	.	.
32AA 32FF# 32DD/	8.eeeL 8.ee\	.
32D/	.	.
32AA 32FF# 32DD/	.	.
32D/	.	.
32AA 32FF# 32DD/	.	.
32D/	.	.
32AA 32FF# 32DD/	16fff#Jk 16ff#\	.
32D/JJJ	.	.
=32	=32	=32
32AALLL 32FF#X 32DD/	2ddd 2dd\	>
32D/	.	.
32AA 32FF# 32DD/	.	.
32D/	.	.
32AA 32FF# 32DD/	.	.
32D/	.	.
32AA 32FF# 32DD/	.	.
32D/	.	.
32AA 32FF# 32DD/	.	.
32D/	.	.
32AA 32FF# 32DD/	.	.
32D/	.	.
32AA 32FF# 32DD/	.	.
32D/	.	.
32AA 32FF# 32DD/	.	.
32D/JJJ	.	.
32FFnLLL 32DD 32BBB-X/	(>4ddd 4dd\	] pp
32BB-/	.	.
32FF 32DD 32BBB-/	.	.
32BB-/	.	.
32FF 32DD 32BBB-/	.	.
32BB-/	.	.
32FF 32DD 32BBB-/	.	.
32BB-/	.	.
32FF 32DD 32BBB-/	8.eeeL 8.ee\	.
32BB-/	.	.
32FF 32DD 32BBB-/	.	.
32BB-/	.	.
32FF 32DD 32BBB-/	.	.
32BB-/	.	.
32FF 32DD 32BBB-/	16fffnJk 16ffn\)	.
32BB-/JJJ	.	.
=33	=33	=33
32FFLLL 32CC 32AAA 32FFF/	(>4fff 4ff\	.
32FF 32CC 32AAA 32FFF/	.	.
32FF 32CC 32AAA 32FFF/	.	.
32FF 32CC 32AAA 32FFF/	.	.
32FF 32CC 32AAA 32FFF/	.	.
32FF 32CC 32AAA 32FFF/	.	.
32FF 32CC 32AAA 32FFF/	.	.
32FF 32CC 32AAA 32FFF/	.	.
32FF 32CC 32AAA 32FFF/	8ccc 8cc\)	.
32FF 32CC 32AAA 32FFF/	.	.
32FF 32CC 32AAA 32FFF/	.	.
32FFJJJ 32CC 32AAA 32FFF/	.	.
*Xtremolo	*	*
8FF 8FFF/	8r	.
!	!LO:TX:a:t=Cor.	!
24GLL 24E-X 24GG/	4B-/	.
24G 24E- 24GG/	.	.
24GJ 24E- 24GG/	.	.
8GJ 8E- 8GG/	.	.
24GLL 24E- 24GG/	8.B-/L	<
24G 24E- 24GG/	.	.
24GJ 24E- 24GG/	.	.
8GJ 8E- 8GG/	.	.
.	16B-/Jk	.
=34	=34	=34
24FLL 24AA/	4A/	.
24F 24D 24AA/	.	.
24FJ 24D 24AA/	.	[
8FJ 8D 8AA/	.	.
24FLL 24D 24AA/	8.d/L	.
24F 24D 24AA/	.	.
24FJ 24D 24AA/	.	.
8FJ 8D 8AA/	.	.
.	16f/Jk	.
24GLL 24C#X 24AA/	4..b-\	fz >
24G 24C# 24AA/	.	.
24GJ 24C# 24AA/	.	.
8GJ 8C# 8AA/	.	.
24GLL 24C# 24AA/	.	.
24G 24C# 24AA/	.	.
24GJ 24C# 24AA/	.	.
8GJ 8C# 8AA/	.	]
.	16a/	.
!!LO:LB:g=original
=35	=35	=35
8D 8DD/	4d/	.
!LO:TX:a:Bi:t=trem.	!	!
32FLLL 32D\	.	.
32A\	.	.
32F 32D\	.	.
32A\JJJ	.	.
32F#XLLL 32D 32C\	4r	.
32A\	.	.
32F# 32D 32C\	.	.
32A\	.	.
32F# 32D 32C\	.	.
32A\	.	.
32F# 32D 32C\	.	.
32A\JJJ	.	.
!	!LO:TX:a:t=Flau .	!
32DLLL 32BB-\	(>4ddd\	.
32G\	.	.
32D 32BB-\	.	.
32G\	.	.
32D 32BB-\	.	.
32G\	.	.
32D 32BB-\	.	.
32G\JJJ	.	.
32BB-LLL 32GG/	8.ccc#X\L	.
32D/	.	.
32BB- 32GG/	.	.
32D/	.	.
32BB- 32GG/	.	.
32D/	.	.
32BB- 32GG/	16ddd\Jk)	.
32D/JJJ	.	.
=36	=36	=36
*	*^	*
!	!LO:TX:a:t=Clar.	!	!
32AALLL 32FF#X/	(>4dd\	4ryy	.
32D/	.	.	.
32AA 32FF#/	.	.	.
32D/	.	.	.
32AA 32FF#/	.	.	.
32D/	.	.	.
32AA 32FF#/	.	.	.
32D/JJJ	.	.	.
32cnLLL 32A 32F#X\	8.cc#X\L	4rgg	.
32d\	.	.	.
32c 32A 32F#\	.	.	.
32d\	.	.	.
32c 32A 32F#\	.	.	.
32d\	.	.	.
!	!LO:TX:a:t=Ob.	!	!
32c 32A 32F#\	16dd\Jk)	.	.
32d\JJJ	.	.	.
*tremolo	*	*	*
32BnLLL 32G#X 32Fn\	(>4dd/	4g#X\	.
32d\	.	.	.
32B 32G# 32F\	.	.	.
32d\	.	.	.
32B 32G# 32F\	.	.	.
32d\	.	.	.
32B 32G# 32F\	.	.	.
32d\	.	.	.
32B 32G# 32F\	8.cc#/L	4r	.
32d\	.	.	.
32B 32G# 32F\	.	.	.
32d\	.	.	.
32B 32G# 32F\	.	.	.
32d\	.	.	.
32B 32G# 32F\	16dd/Jk)	.	.
32d\JJJ	.	.	.
!!LO:LB:g=original
=37	=37	=37	=37
!LO:TX:a:Bi:t=trem.	!LO:TX:b:t=Trom.:problem:w ź©ódle napis pomiędzy nutami 4gg i 4g	!	!
32dLLL 32B-X 32G 32E\	4gg/	(>4g\	.
32d 32B- 32G 32E\	.	.	.
32d 32B- 32G 32E\	.	.	.
32d 32B- 32G 32E\	.	.	.
32d 32B- 32G 32E\	.	.	.
32d 32B- 32G 32E\	.	.	.
32d 32B- 32G 32E\	.	.	.
32dJJJ 32B- 32G 32E\	.	.	.
32c#XLLL 32B- 32G 32E\	4r	8.f#X\L	.
32c# 32B- 32G 32E\	.	.	.
32c# 32B- 32G 32E\	.	.	.
32c# 32B- 32G 32E\	.	.	.
32c# 32B- 32G 32E\	.	.	.
32c# 32B- 32G 32E\	.	.	.
32c# 32B- 32G 32E\	.	16g\Jk)	.
32c#JJJ 32B- 32G 32E\	.	.	.
!	!LO:TX:a:t=Flau.	!	!
32cnLLL 32A 32G 32E-X\	(>4ccc/	4cc\	.
32c 32A 32G 32E-\	.	.	.
32c 32A 32G 32E-\	.	.	.
32c 32A 32G 32E-\	.	.	.
32c 32A 32G 32E-\	.	.	.
32c 32A 32G 32E-\	.	.	.
32c 32A 32G 32E-\	.	.	.
32cJJJ 32A 32G 32E-\	.	.	.
32cLLL 32A 32F#X 32E-\	8.bbn/L	4r	.
32c 32A 32F# 32E-\	.	.	.
32c 32A 32F# 32E-\	.	.	.
32c 32A 32F# 32E-\	.	.	.
32c 32A 32F# 32E-\	.	.	.
32c 32A 32F# 32E-\	.	.	.
32c 32A 32F# 32E-\	16ccc/Jk)	.	.
32cJJJ 32A 32F# 32E-\	.	.	.
=38	=38	=38	=38
!LO:TX:a:Bi:t=trem.	!LO:TX:a:t=Clar.	!	!
32cLLL 32A-X 32Fn 32D\	&(>4ff/	4ff\	<
32c 32A- 32F 32D\	.	.	.
32c 32A- 32F 32D\	.	.	.
32c 32A- 32F 32D\	.	.	.
32c 32A- 32F 32D\	.	.	.
32c 32A- 32F 32D\	.	.	.
32c 32A- 32F 32D\	.	.	.
32cJJJ 32A- 32F 32D\	.	.	.
32BnLLL 32A- 32F 32D\	4r	8.ee\L	.
32B 32A- 32F 32D\	.	.	.
32B 32A- 32F 32D\	.	.	.
32B 32A- 32F 32D\	.	.	.
32B 32A- 32F 32D\	.	.	.
32B 32A- 32F 32D\	.	.	.
32B 32A- 32F 32D\	.	16ff\Jk&)	.
32BJJJ 32A- 32F 32D\	.	.	.
!	!LO:TX:a:t=Ob.	!	!
32B-XLLL 32G 32E 32C#X\	(>4gg/	4g\	.
32B- 32G 32E 32C#\	.	.	.
32B- 32G 32E 32C#\	.	.	.
32B- 32G 32E 32C#\	.	.	.
32B- 32G 32E 32C#\	.	.	.
32B- 32G 32E 32C#\	.	.	.
32B- 32G 32E 32C#\	.	.	.
32B- 32G 32E 32C#\	.	.	.
32B- 32G 32E 32C#\	8.ff#X/L	4r	.
32B- 32G 32E 32C#\	.	.	.
32B- 32G 32E 32C#\	.	.	.
32B- 32G 32E 32C#\	.	.	.
32B- 32G 32E 32C#\	.	.	.
32B- 32G 32E 32C#\	.	.	.
32B- 32G 32E 32C#\	16gg/Jk)	.	[
32B-JJJ 32G 32E 32C#\	.	.	.
=39	=39	=39	=39
!LO:TX:a:Bi:t=trem.	!LO:TX:a:t=Trom.	!	!
32ALLL 32G 32D\	&(>4a/	4a\	>
32A 32G 32D\	.	.	.
32A 32G 32D\	.	.	.
32A 32G 32D\	.	.	.
32A 32G 32D\	.	.	.
32A 32G 32D\	.	.	.
32A 32G 32D\	.	.	.
32AJJJ 32G 32D\	.	.	.
32ALLL 32F 32D\	4r	8.g#X\L	.
32A 32F 32D\	.	.	.
32A 32F 32D\	.	.	.
32A 32F 32D\	.	.	.
32A 32F 32D\	.	.	.
32A 32F 32D\	.	.	.
32A 32F 32D\	.	16a\Jk&)	.
32AJJJ 32F 32D\	.	.	.
!	!LO:TX:a:t=Clar.	!	!
32FLLL 32D 32BBn 32GG#X/	(>4dd/	4dd\	.
32F 32D 32BB 32GG#/	.	.	.
32F 32D 32BB 32GG#/	.	.	.
32F 32D 32BB 32GG#/	.	.	.
32F 32D 32BB 32GG#/	.	.	.
32F 32D 32BB 32GG#/	.	.	.
32F 32D 32BB 32GG#/	.	.	.
32F 32D 32BB 32GG#/	.	.	.
32F 32D 32BB 32GG#/	8.cc#X/L	4r	]
32F 32D 32BB 32GG#/	.	.	.
32F 32D 32BB 32GG#/	.	.	.
32F 32D 32BB 32GG#/	.	.	.
32F 32D 32BB 32GG#/	.	.	.
32F 32D 32BB 32GG#/	.	.	.
32F 32D 32BB 32GG#/	16dd/Jk)	.	.
32FJJJ 32D 32BB 32GG#/	.	.	.
*	*v	*v	*
=40	=40	=40
!LO:TX:a:Bi:t=trem.	!	!
!	!	!LO:DY:b:rj
32AALLL 32AAA/	2a 2f 2d/	p
32AA 32AAA/	.	.
32AA 32AAA/	.	.
32AA 32AAA/	.	.
32AA 32AAA/	.	.
32AA 32AAA/	.	.
32AA 32AAA/	.	.
32AA 32AAA/	.	.
32AA 32AAA/	.	.
32AA 32AAA/	.	.
32AA 32AAA/	.	.
32AA 32AAA/	.	.
32AA 32AAA/	.	.
32AA 32AAA/	.	.
32AA 32AAA/	.	.
32AA 32AAA/	.	.
!	!LO:TX:a:t=Ob.	!
32AA 32AAA/	(>4aa\	.
32AA 32AAA/	.	.
32AA 32AAA/	.	.
32AA 32AAA/	.	.
32AA 32AAA/	.	.
32AA 32AAA/	.	.
32AA 32AAA/	.	.
32AA 32AAA/	.	.
32AA 32AAA/	8.gg#X\L	.
32AA 32AAA/	.	.
32AA 32AAA/	.	.
32AA 32AAA/	.	.
32AA 32AAA/	.	.
32AA 32AAA/	.	.
32AA 32AAA/	16aa\Jk)	.
32AAJJJ 32AAA/	.	.
=41	=41	=41
*	*^	*
!LO:TX:a:i:t=trem.	!	!	!
32AALLL 32AAA/	2a/	4r	.
32AA 32AAA/	.	.	.
32AA 32AAA/	.	.	.
32AA 32AAA/	.	.	.
32AA 32AAA/	.	.	.
32AA 32AAA/	.	.	.
32AA 32AAA/	.	.	.
32AA 32AAA/	.	.	.
32AA 32AAA/	.	4e 4d\	.
32AA 32AAA/	.	.	.
32AA 32AAA/	.	.	.
32AA 32AAA/	.	.	.
32AA 32AAA/	.	.	.
32AA 32AAA/	.	.	.
32AA 32AAA/	.	.	.
32AA 32AAA/	.	.	.
!	!LO:TX:a:t=Trom.	!	!
32AA 32AAA/	(>4a/	2c#X 2G\	.
32AA 32AAA/	.	.	.
32AA 32AAA/	.	.	.
32AA 32AAA/	.	.	.
32AA 32AAA/	.	.	.
32AA 32AAA/	.	.	.
32AA 32AAA/	.	.	.
32AA 32AAA/	.	.	.
32AA 32AAA/	8.g#X/L	.	.
32AA 32AAA/	.	.	.
32AA 32AAA/	.	.	.
32AA 32AAA/	.	.	.
32AA 32AAA/	.	.	.
32AA 32AAA/	.	.	.
32AA 32AAA/	16a/Jk)	.	.
32AAJJJ 32AAA/	.	.	.
*Xtremolo	*	*	*
!!LO:PB:g=original
*	*v	*v	*
=42||	=42||	=42||
!!!OMD: Allegro vivace
*M2/2	*M2/2	*
*met(c|)	*met(c|)	*
!	!	!LO:DY:b:rj
4DD/	4d 4F/	p
4A 4F 4D\	4r	.
4A 4F 4D\	2r	.
4A 4F 4D\	.	.
=43	=43	=43
!	!LO:TX:a:t=Ob	!
!	!LO:TX:a:t=P:problem:diminuendolike accent	!
4A 4F 4D\	(>2ff^<\	.
4A 4F 4D\	.	.
4A 4F 4D\	4.ee\	.
4A 4F 4D\	.	.
.	8ff\)	.
=44	=44	=44
4A 4F 4D\	4dd\	.
4A 4F 4D\	4r	.
4A 4F 4D\	2r	.
4A 4F 4D\	.	.
=45	=45	=45
!	!LO:TX:a:t=P:problem:diminuendolike accent	!
4B- 4G 4D\	(>2bb-^<\	<
4B- 4G 4D\	.	.
4B- 4G 4D\	4.aa\	.
4B- 4G 4D\	.	.
.	8bb-\)	.
=46	=46	=46
4B- 4G 4E 4D\	2gg\	[
4B- 4G 4E 4D\	.	.
4B- 4G 4E 4D\	2r	.
4B- 4G 4E 4D\	.	.
=47	=47	=47
!	!LO:TX:a:t=Vni	!
[>1A [>1G [<1E [<1C#X	[>2ggg\	ff
.	8ggg\L]	.
.	8eee\	.
.	8ccc#X\	.
.	8aa\J	.
=48	=48	=48
1A] 1G] 1E] 1C#]	8gg\L	.
.	8ee\	.
.	8cc#X\	.
.	8a\J	.
.	8g/L	.
.	8e/	.
.	8a/	.
.	8g/J	.
!!LO:LB:g=original
=49	=49	=49
4A 4F 4D\	4f/	.
4BB- 4BBB-/	4ddd 4ff 4dd\	f
4E-X 4EE-X/	4eee-X 4gg 4ee-X\	f
4G#X 4GG#X/	4ddd 4bbn 4ff 4dd\	f
=50	=50	=50
4A 4AA\	4ccc#X 4aa 4ee 4cc#X\	f
4AA 4AAA/	4aaa 4eee 4ccc# 4aa\	sf
2r	2r	.
=51	=51	=51
*	*^	*
!LO:TX:a:t=Fag	!LO:TX:a:t=Cor	!	!
!LO:TX:a:t=P:problem:diminuendolike accent	!	!	!
(>1d &(<1B-^<	1r	[<1g [<1e	fz
=52	=52	=52	=52
!	!LO:TX:a:t=Vno	!	!
!	!	!	!LO:DY:a:rj
4c#X) 4A\&)	8cc#X/L	4g] 4e\]	p
.	8ee/J	.	.
4r	4a/	2.ryy	.
2r	2r	.	.
*	*v	*v	*
=53	=53	=53
!LO:TX:a:t=Tromboni	!	!
!LO:TX:a:t=P:problem:diminuendolike accent	!	!
!	!LO:S:s=3:note:problem:note-level slur	!
!	!LO:S:s=4:note:problem:note-level slur	!
!	!	!LO:DY:b=2:rj
[1G [1E (>1D &(<1BB-^<	1r	fz
=54	=54	=54
!	!LO:S:s=3:note:problem:note-level slur	!
!	!LO:S:s=4:note:problem:note-level slur	!
4G] 4E] 4C#X) 4AA\&)	8c#X/L	.
.	8e/J	.
4r	4A/	.
2AA 2AAA^>/	2a 2A^>/	.
=55	=55	=55
2r	8cc#X\L	.
.	8ee\J	.
!	!LO:TX:b:Bi:t=cres_:ext=ud:problem:dynamics with extention lines	!
!	!	!LO:HP:b:Bi:t=cres
.	4a/	<
2AA 2AAA/	2aa 2a^>\	.
=56	=56	=56
2r	8ee\L	.
.	8aa\J	.
.	4cc#X\	.
4AA 4AAA/	8aa\L	.
.	8ccc\J	.
4r	4ee\	.
!!LO:LB:g=original
=57	=57	=57
4E 4C#X 4AA/	8ccc#X\L	.
.	8eee\J	.
4r	4aa\	.
4A 4E 4C# 4AA\	8eee\L	.
.	8ggg\J	.
4r	4ccc#\	[[
=58	=58	=58
*	*^	*
!	!LO:TX:b:t=Ob	!	!
!	!	!LO:TX:b:t=P:problem:diminuendolike accent	!
4D 4DD/	4ddd/	2ff^<\	f
4A 4F 4D\	4r	.	p
4A 4F 4D\	2r	4.ee\	.
4A 4F 4D\	.	.	.
.	.	8ff\	.
*	*v	*v	*
=59	=59	=59
*tremolo	*	*
(<16DD/LL	4dd\	<
16CC#X/	.	.
16DD/	.	.
16CC#/	.	.
16DD/	4f 4d 4A/	.
16CC#/	.	.
16DD/	.	.
16CC#X/JJ	.	[
16DD/LL	4f 4d 4A/	>
16CC#/	.	.
16DD/	.	.
16CC#/	.	.
16DD/	4f 4d 4A/	.
16CC#/	.	.
16DD/	.	.
16CC#/JJ)	.	]
*Xtremolo	*	*
=60	=60	=60
4DD/	(>2bb- 2b-\	<
4B- 4G 4D\	.	.
4B- 4G 4D\	4.aa 4.a\	.
4B- 4G 4D\	.	.
.	8bb- 8b-\	[
=61	=61	=61
*tremolo	*	*
!LO:TX:a:Bi:t=trem.	!	!
16B-LL 16G 16D\	4gg 4g\)	.
16B- 16G 16D\	.	.
16B- 16G 16D\	.	.
16B- 16G 16D\	.	.
!	!	!LO:HP:b=2
16B- 16G 16D\	4r	<
16B- 16G 16D\	.	.
16B- 16G 16D\	.	.
16B-JJ 16G 16D\	.	.
16B-LL 16G 16F 16D-X\	2r	.
16B- 16G 16F 16D-\	.	.
16B- 16G 16F 16D-\	.	.
16B- 16G 16F 16D-\	.	.
16B- 16G 16F 16D-\	.	.
16B- 16G 16F 16D-\	.	.
16B- 16G 16F 16D-\	.	.
16B-JJ 16G 16F 16D-\	.	[[
*Xtremolo	*	*
=62	=62	=62
*	*8va	*
[>1B- [>1G [<1E [<1C	[>2bbb-\	ff
.	8bbb-\L]	.
.	8ggg\	.
.	8eee\	.
.	8ccc\J	.
*	*X8va	*
!!LO:LB:g=original
=63	=63	=63
1B-] 1G] 1E] 1C]	8bb-\L	.
.	8gg\	.
.	8ee\	.
.	8cc\J	.
.	8b-\L	.
.	8g\	.
.	8cc\	.
.	8b-\J	.
=64	=64	=64
4A 4F\	4a/	.
4F 4FF/	4fff 4ccc 4aa 4ff\	sf
8r	8r	.
8FL 8FF/	8f/L	.
8E 8EE/	8e/	.
8DJ 8DD/	8d/J	.
=65	=65	=65
4C 4CC/	4c/	.
4C 4CC/	4ccc 4gg 4ee 4cc\	sf
8r	8r	.
8c\L	8cccL 8cc\	.
8d\	8ddd 8dd\	.
8e\J	8eeeJ 8ee\	.
=66	=66	=66
4f\	4fff 4ff\	.
4f 4c 4F\	4fff 4ccc 4aa 4ff\	sf
8r	8r	.
8FL 8FF/	8f/L	.
8E 8EE/	8e/	.
8DJ 8DD/	8d/J	.
=67	=67	=67
4C 4CC/	4c/	.
4C 4CC/	4ccc 4gg 4ee 4cc\	sf
2r	8r	.
.	8cccL 8cc\	.
.	8ddd 8dd\	.
.	8eeeJ 8ee\	.
=68	=68	=68
*tremolo	*	*
!LO:TX:a:Bi:t=trem.	!	!
16FLL 16C 16AA 16FF/	2fff 2ff\	ff
16F 16C 16AA 16FF/	.	.
16F 16C 16AA 16FF/	.	.
16F 16C 16AA 16FF/	.	.
16F 16C 16AA 16FF/	.	.
16F 16C 16AA 16FF/	.	.
16F 16C 16AA 16FF/	.	.
16F 16C 16AA 16FF/	.	.
16F 16C 16AA 16FF/	(>8fff\L	.
16F 16C 16AA 16FF/	.	.
16F 16C 16AA 16FF/	8aaa\J)	.
16F 16C 16AA 16FF/	.	.
16F 16C 16AA 16FF/	4ccc\	.
16F 16C 16AA 16FF/	.	.
16F 16C 16AA 16FF/	.	.
16FJJ 16C 16AA 16FF/	.	.
!!LO:LB:g=original
=69	=69	=69
!LO:TX:a:Bi:t=trem.	!	!
16FLL 16C 16AA 16FF/	(>8ccc\L	.
16F 16C 16AA 16FF/	.	.
16F 16C 16AA 16FF/	8fff\J)	.
16F 16C 16AA 16FF/	.	.
16F 16C 16AA 16FF/	4aa\	.
16F 16C 16AA 16FF/	.	.
16F 16C 16AA 16FF/	.	.
16F 16C 16AA 16FF/	.	.
16F 16C 16AA 16FF/	(>8aa\L	.
16F 16C 16AA 16FF/	.	.
16F 16C 16AA 16FF/	8ccc\J)	.
16F 16C 16AA 16FF/	.	.
16F 16C 16AA 16FF/	4ff\	.
16F 16C 16AA 16FF/	.	.
16F 16C 16AA 16FF/	.	.
16FJJ 16C 16AA 16FF/	.	.
*Xtremolo	*	*
=70	=70	=70
4F 4C 4AA 4FF/	(>8ff\L	.
.	8aa\J)	.
4F 4C 4AA 4FF/	4cc\	.
4F 4C 4AA 4FF/	(>8cc\L	.
.	8ff\J)	.
4F 4C 4AA 4FF/	4a/	.
=71	=71	=71
4F 4C 4AA 4FF/	4cc\	.
4F 4C 4AA 4FF/	4ff 4f\	.
4F 4C 4AA 4FF/	4aa 4a\	.
4F 4C 4AA 4FF/	4ccc 4cc\	.
=72	=72	=72
*tremolo	*	*
!LO:TX:a:Bi:t=trem	!	!
16FLL 16C 16AA-X 16FF/	2fff 2ff\	.
16F 16C 16AA- 16FF/	.	.
16F 16C 16AA- 16FF/	.	.
16F 16C 16AA- 16FF/	.	.
16F 16C 16AA- 16FF/	.	.
16F 16C 16AA- 16FF/	.	.
16F 16C 16AA- 16FF/	.	.
16F 16C 16AA- 16FF/	.	.
16F 16C 16AA- 16FF/	8fff\L	.
16F 16C 16AA- 16FF/	.	.
16F 16C 16AA- 16FF/	8aaa-X\J	.
16F 16C 16AA- 16FF/	.	.
16F 16C 16AA- 16FF/	4ccc\	.
16F 16C 16AA- 16FF/	.	.
16F 16C 16AA- 16FF/	.	.
16FJJ 16C 16AA- 16FF/	.	.
=73	=73	=73
!LO:TX:a:Bi:t=trem.	!	!
16FLL 16C 16AA-X 16FF/	8ccc\L	.
16F 16C 16AA- 16FF/	.	.
16F 16C 16AA- 16FF/	8fff\J	.
16F 16C 16AA- 16FF/	.	.
16F 16C 16AA- 16FF/	4aa-X\	.
16F 16C 16AA- 16FF/	.	.
16F 16C 16AA- 16FF/	.	.
16F 16C 16AA- 16FF/	.	.
16F 16C 16AA- 16FF/	8aa-\L	.
16F 16C 16AA- 16FF/	.	.
16F 16C 16AA- 16FF/	8ccc\J	.
16F 16C 16AA- 16FF/	.	.
16F 16C 16AA- 16FF/	4ff\	.
16F 16C 16AA- 16FF/	.	.
16F 16C 16AA- 16FF/	.	.
16FJJ 16C 16AA- 16FF/	.	.
*Xtremolo	*	*
=74	=74	=74
4F 4C 4AA-X 4FF/	8ff\L	.
.	8aa-X\J	.
4F 4C 4AA- 4FF/	4cc\	.
4F 4C 4AA- 4FF/	8cc\L	.
.	8ff\J	.
4F 4C 4AA- 4FF/	4a-X/	.
!!LO:LB:g=original
=75	=75	=75
4F 4C 4AA-X 4FF/	4cc\	.
4F 4C 4AA- 4FF/	4ff 4f\	.
4F 4C 4AA- 4FF/	4aa-X 4a-X\	.
4F 4C 4AA- 4FF/	4ccc 4cc\	.
=76	=76	=76
*tremolo	*	*
!LO:TX:a:Bi:t=trem.	!	!
16FLL 16D-X\	8fffL 8ff\	.
16F 16D-\	.	.
16F 16D-\	8eeeJ 8ee\	.
16F 16D-\	.	.
16F 16D-\	4fff 4ff\	.
16F 16D-\	.	.
16F 16D-\	.	.
16FJJ 16D-\	.	.
16GLL 16F 16D-\	8gggL 8gg\	.
16G 16F 16D-\	.	.
16G 16F 16D-\	8fffJ 8ff\	.
16G 16F 16D-\	.	.
16G 16F 16D-\	4ggg 4gg\	.
16G 16F 16D-\	.	.
16G 16F 16D-\	.	.
16GJJ 16F 16D-\	.	.
=77	=77	=77
*	*8va	*
!	!LO:TX:b:Bi:t=cres_:ext=ud:problem:dynamics with extention lines	!
!	!	!LO:HP:b:Bi:t=cres
16A-XLL 16F 16D-X\	8aaa-XL 8aa-X\	<
16A- 16F 16D-\	.	.
16A- 16F 16D-\	8gggJ 8gg\	.
16A- 16F 16D-\	.	.
16A- 16F 16D-\	4aaa- 4aa-\	.
16A- 16F 16D-\	.	.
16A- 16F 16D-\	.	.
16A-JJ 16F 16D-\	.	.
16AnLL 16F 16D-\	8aaanL 8aan\	.
16A 16F 16D-\	.	.
16A 16F 16D-\	8ggg#XJ 8gg#X\	.
16A 16F 16D-\	.	.
16A 16F 16D-\	4aaa 4aa\	.
16A 16F 16D-\	.	.
16A 16F 16D-\	.	.
16AJJ 16F 16D-\	.	.
=78	=78	=78
16B-LL 16F 16D-X\	8bbb-L 8bb-\	.
16B- 16F 16D-\	.	.
16B- 16F 16D-\	8aaaJ 8aa\	.
16B- 16F 16D-\	.	.
16B- 16F 16D-\	4bbb- 4bb-\	.
16B- 16F 16D-\	.	.
16B- 16F 16D-\	.	.
16B-JJ 16F 16D-\	.	.
16ALL 16F 16D-\	8aaaL 8aa\	.
16A 16F 16D-\	.	.
16A 16F 16D-\	8ggg#XJ 8gg#X\	.
16A 16F 16D-\	.	.
16A 16F 16D-\	4aaa 4aa\	.
16A 16F 16D-\	.	.
16A 16F 16D-\	.	.
16AJJ 16F 16D-\	.	.
=79	=79	=79
16B-LL 16F 16D-X\	8bbb-L 8bb-\	.
16B- 16F 16D-\	.	.
16B- 16F 16D-\	8aaaJ 8aa\	.
16B- 16F 16D-\	.	.
16B- 16F 16D-\	4bbb- 4bb-\	.
16B- 16F 16D-\	.	.
16B- 16F 16D-\	.	.
16B-JJ 16F 16D-\	.	.
16BnLL 16F 16D-\	8bbbnL 8bbn\	.
16B 16F 16D-\	.	.
16B 16F 16D-\	8aaa#XJ 8aa#X\	.
16B 16F 16D-\	.	.
16B 16F 16D-\	4bbb 4bb\	.
16B 16F 16D-\	.	.
16B 16F 16D-\	.	.
16BJJ 16F 16D-\	.	[
*Xtremolo	*	*
=80	=80	=80
*	*tremolo	*
2c 2E 2C\	16ccccLL 16ccc\	ff
.	16cccc 16ccc\	.
.	16cccc 16ccc\	.
.	16cccc 16ccc\	.
.	16cccc 16ccc\	.
.	16cccc 16ccc\	.
.	16cccc 16ccc\	.
.	16ccccJJ 16ccc\	.
8EL 8C\	16ccccLL 16ccc\	.
.	16cccc 16ccc\	.
8D#XJ 8BBn\	16cccc 16ccc\	.
.	16cccc 16ccc\	.
4E 4C\	16cccc 16ccc\	.
.	16cccc 16ccc\	.
.	16cccc 16ccc\	.
.	16ccccJJ 16ccc\	.
!!LO:PB:g=original
=81	=81	=81
2E 2C#X\	16ccccnLL 16cccn\	.
.	16cccc 16ccc\	.
.	16cccc 16ccc\	.
.	16cccc 16ccc\	.
.	16cccc 16ccc\	.
.	16cccc 16ccc\	.
.	16cccc 16ccc\	.
.	16cccc 16ccc\	.
8FL 8D\	16cccc 16ccc\	.
.	16cccc 16ccc\	.
8EJ 8C#\	16cccc 16ccc\	.
.	16cccc 16ccc\	.
4F 4D\	16cccc 16ccc\	.
.	16cccc 16ccc\	.
.	16cccc 16ccc\	.
.	16ccccJJ 16ccc\	.
=82	=82	=82
2F#X 2D#X\	16ccccLL 16ccc\	.
.	16cccc 16ccc\	.
.	16cccc 16ccc\	.
.	16cccc 16ccc\	.
.	16cccc 16ccc\	.
.	16cccc 16ccc\	.
.	16cccc 16ccc\	.
.	16cccc 16ccc\	.
8GL 8E\	16cccc 16ccc\	.
.	16cccc 16ccc\	.
8F#J 8D#\	16cccc 16ccc\	.
.	16cccc 16ccc\	.
4G 4E\	16cccc 16ccc\	.
.	16cccc 16ccc\	.
.	16cccc 16ccc\	.
.	16ccccJJ 16ccc\	.
=83	=83	=83
2G#X 2E#X\	16ccccLL 16ccc\	.
.	16cccc 16ccc\	.
.	16cccc 16ccc\	.
.	16cccc 16ccc\	.
.	16cccc 16ccc\	.
.	16cccc 16ccc\	.
.	16cccc 16ccc\	.
.	16cccc 16ccc\	.
8AL 8F#X\	16cccc 16ccc\	.
.	16cccc 16ccc\	.
8G#J 8E#\	16cccc 16ccc\	.
.	16cccc 16ccc\	.
4A 4F#\	16cccc 16ccc\	.
.	16cccc 16ccc\	.
.	16cccc 16ccc\	.
.	16ccccJJ 16ccc\	.
=84	=84	=84
!LO:TX:a:t=P:problem:diminuendolike accent	!	!
2B-X 2G^<\	16ccccLL 16ccc\	.
.	16cccc 16ccc\	.
.	16cccc 16ccc\	.
.	16cccc 16ccc\	.
.	16cccc 16ccc\	.
.	16cccc 16ccc\	.
.	16cccc 16ccc\	.
.	16cccc 16ccc\	.
!LO:TX:a:t=P:problem:diminuendolike accent	!	!
2A 2F#X^<\	16cccc 16ccc\	.
.	16cccc 16ccc\	.
.	16cccc 16ccc\	.
.	16cccc 16ccc\	.
.	16cccc 16ccc\	.
.	16cccc 16ccc\	.
.	16cccc 16ccc\	.
.	16ccccJJ 16ccc\	.
=85	=85	=85
!LO:TX:a:t=P:problem:diminuendolike accent	!	!
2A-X 2Fn^<\	16ccccLL 16ccc\	.
.	16cccc 16ccc\	.
.	16cccc 16ccc\	.
.	16cccc 16ccc\	.
.	16cccc 16ccc\	.
.	16cccc 16ccc\	.
.	16cccc 16ccc\	.
.	16cccc 16ccc\	.
8GL 8E\	16cccc 16ccc\	.
.	16cccc 16ccc\	.
8F#XJ 8D#X\	16cccc 16ccc\	.
.	16cccc 16ccc\	.
4G 4E\	16cccc 16ccc\	.
.	16cccc 16ccc\	.
.	16cccc 16ccc\	.
.	16ccccJJ 16ccc\	.
=86	=86	=86
2F#X 2D#X\	16ccccLL 16ccc\	.
.	16cccc 16ccc\	.
.	16cccc 16ccc\	.
.	16cccc 16ccc\	.
.	16cccc 16ccc\	.
.	16cccc 16ccc\	.
.	16cccc 16ccc\	.
.	16cccc 16ccc\	.
!LO:TX:a:t=P:problem:diminuendolike accent	!	!
[>2Fn N[<2Dn^<\	16cccc 16ccc\	.
.	16cccc 16ccc\	.
.	16cccc 16ccc\	.
.	16cccc 16ccc\	.
.	16cccc 16ccc\	.
.	16cccc 16ccc\	.
.	16cccc 16ccc\	.
.	16ccccJJ 16ccc\	.
=87	=87	=87
*^	*	*
1F]	2D\N]	16ccccLL 16ccc\	.
.	.	16cccc 16ccc\	.
.	.	16cccc 16ccc\	.
.	.	16cccc 16ccc\	.
.	.	16cccc 16ccc\	.
.	.	16cccc 16ccc\	.
.	.	16cccc 16ccc\	.
.	.	16cccc 16ccc\	.
.	2D-X\	16cccc 16ccc\	.
.	.	16cccc 16ccc\	.
.	.	16cccc 16ccc\	.
.	.	16cccc 16ccc\	.
.	.	16cccc 16ccc\	.
.	.	16cccc 16ccc\	.
.	.	16cccc 16ccc\	.
.	.	16ccccJJ 16ccc\	.
*	*	*Xtremolo	*
!!LO:LB:g=original
*v	*v	*	*
=88	=88	=88
*tuplet	*tuplet	*
8E 8C\	8cccc 8ccc\	.
8r	8r	.
*clefG2	*	*
!	!LO:TUP:a:problem:klamra łukowa	!
8bb-\	12r	ff
.	12bb-\L	.
8r	.	.
.	12bbb-\J	.
!	!LO:TUP:a:problem:klamra łukowa	!
8gg\	12r	.
.	12gg\L	.
8r	.	.
.	12ggg\J	.
!	!LO:TUP:a:problem:klamra łukowa	!
8ee\	12r	.
.	12ee\L	.
8r	.	.
.	12eee\J	.
*	*X8va	*
=89	=89	=89
!	!LO:TUP:a:problem:klamra łukowa	!
8cc\	12r	.
.	12cc\L	.
8r	.	.
.	12ccc\J	.
!	!LO:TUP:a:problem:klamra łukowa	!
8b-\	12r	.
.	12b-\L	.
8r	.	.
.	12bb-\J	.
!	!LO:TUP:a:problem:klamra łukowa	!
8g/	12r	.
.	12g\L	.
8r	.	.
.	12gg\J	.
!	!LO:TUP:a:problem:klamra łukowa	!
8e/	12r	.
.	12e\L	.
8r	.	.
.	12ee\J	.
*clefF4	*	*
=90	=90	=90
8c\	4cc\	.
8r	.	.
8B-\	8r	.
8r	8b-\	.
8G\	8r	.
8r	8g/	.
8E\	8r	.
8r	8e/	.
=91	=91	=91
8C\	8r	.
8r	8c/	.
8BB-\	8r<	.
8r	8B-</	.
8GG\	8r<	.
8r	8G</	.
8EE\	8r<	.
8r	8E</	.
=92	=92	=92
1D-X 1DD-X	1r	fz
=93	=93	=93
*tremolo	*	*
!LO:TX:a:Bi:t=trem.	!	!
16BnLL 16F 16D-X^<\	1r	.
16B 16F 16D-\	.	.
16B 16F 16D-\	.	.
16B 16F 16D-\	.	.
16B 16F 16D-\	.	.
16B 16F 16D-\	.	.
16B 16F 16D-\	.	.
16B 16F 16D-\	.	.
16B 16F 16D-\	.	.
16B 16F 16D-\	.	.
16B 16F 16D-\	.	.
16B 16F 16D-\	.	.
16B 16F 16D-\	.	.
16B 16F 16D-\	.	.
16B 16F 16D-\	.	.
16BJJ 16F 16D-\	.	.
*Xtremolo	*	*
!!LO:LB:g=original
=94	=94	=94
4c 4E 4C\	8ee\L	f
.	8gg\J	.
4r	4cc\	.
2r	2r	.
=95	=95	=95
1r	8e/L	p
.	8g/J	.
.	4c/	.
.	2r	.
=96	=96	=96
1D-X 1DD-X	1r	fz
=97	=97	=97
*tremolo	*	*
!LO:TX:a:Bi:t=trem.	!	!
16BnLL 16F 16D-X^\	1r	.
16B 16F 16D-\	.	.
16B 16F 16D-\	.	.
16B 16F 16D-\	.	.
16B 16F 16D-\	.	.
16B 16F 16D-\	.	.
16B 16F 16D-\	.	.
16B 16F 16D-\	.	.
16B 16F 16D-\	.	.
16B 16F 16D-\	.	.
16B 16F 16D-\	.	.
16B 16F 16D-\	.	.
16B 16F 16D-\	.	.
16B 16F 16D-\	.	.
16B 16F 16D-\	.	.
16BJJ 16F 16D-\	.	.
*Xtremolo	*	*
=98	=98	=98
4c 4E 4C\	8eee\L	f
.	8ggg\J	.
4r	4ccc\	.
2r	2r	.
=99	=99	=99
1r	8cc\L	p
.	8ee\J	.
.	4g/	.
.	2r	.
=100	=100	=100
1r	8g/L	.
.	8cc/J	.
.	4e/	.
.	2r	.
=101	=101	=101
1r	8e/L	.
.	8g/J	.
.	4c/	.
.	2r	.
*	*clefF4	*
=102	=102	=102
!LO:TX:a:t=Fag. II.o	!	!
[>1c^<	8E\L	.
.	8G\J	.
.	4C/	.
.	2r	.
*	*clefG2	*
!!LO:LB:g=original
=103	=103	=103
1c_>	1r	.
=104	=104	=104
!	!LO:TX:a:t=Cor.	!
(>2c\]	1d-X	.
4B-\	.	.
4A-X\	.	.
=105	=105	=105
*	*^	*
4G\	[>1e-X	2r	.
4F\	.	.	.
!	!LO:TX:b:t=Fag.I.o	!	!
4E-X\	.	2G\	.
4D-X\)	.	.	.
=106	=106	=106	=106
1C	2e-X/]	1A-X	<
.	2en/	.	.
=107	=107	=107	=107
N[>1D-X	[1f	2A-X\	.
.	.	2An\	[[
=108	=108	=108	=108
1D-XN_>	1f]	2B-\	.
.	.	2Bn\	.
*	*v	*v	*
=109	=109	=109
*^	*	*
2r	1D-XN]	4a-X 4f 4Bn/	>
.	.	4r	.
!	!	!LO:TX:a:t=Ob.	!
!	!	!LO:TX:a:t=Flau.	!
2Bn 2A-X 2F/	.	[>2fff [<2ff\	]]
*v	*v	*	*
=110	=110	=110
1c 1An 1F 1C	(>2fff] 2ff\]	p
.	4eee 4ee\	.
.	4ddd 4dd\	.
=111	=111	=111
2e: 2B-: 2G: 2C:\	4ddd 4dd\	.
.	4ccc 4cc\	.
2r	4bb- 4b-\	.
.	4gg 4g\	.
!!LO:LB:g=original
=112	=112	=112
8FF/L	4ff 4f\)	pp
8C/	.	.
8F/	4r	.
8C/J	.	.
4A'>\	4r	.
4r	4f 4c 4A'</	.
=113	=113	=113
2r	4a 4f 4c'</	.
.	4cc 4a 4f'</	.
4r	4ff 4cc 4a'>\	.
4C'</	4r	.
=114	=114	=114
8FF/L	2r	pp
8C/	.	.
8F/	.	.
8C/J	.	.
4A'>\	4r	.
4r	4f 4c 4A'</	.
=115	=115	=115
2r	4a 4f 4c'</	.
.	4cc 4a 4f'</	.
4r	4ff 4cc 4a'>\	.
4C/	4r	.
=116	=116	=116
8FF/L	2r	.
8C/	.	.
8F/	.	.
8C/J	.	.
!	!LO:TX:b:Bi:t=dolce	!
!	!LO:TX:a:t=Ob	!
!	!LO:TX:a:t=Flau.	!
4A\	(>2aa 2a\	.
4C/	.	.
=117	=117	=117
4A 4F\	2gg#X 2g#X\	.
4C/	.	.
4A 4F\	2aa 2a\)	.
4C/	.	.
!!LO:LB:g=original
=118	=118	=118
8FF/L	1ddd 1dd	.
8C/	.	.
8F/	.	.
8C/J	.	.
4A\	.	.
4C/	.	.
=119	=119	=119
4A 4F\	[>1ccc [<1cc	.
4C/	.	.
4A 4F\	.	.
4C/	.	.
=120	=120	=120
8EE/L	(>2ccc] 2cc\]	.
8C/	.	.
8G/	.	.
8C/J	.	.
4G\	4bb- 4b-\	.
4C/	4aa 4a\	.
=121	=121	=121
4B- 4G\	2gg 2g\	.
4C/	.	.
4B- 4G\	4aa 4a\	.
4C/	4gg 4g\)	.
=122	=122	=122
8FF/L	(>1ff &(<1f	.
8C/	.	.
8A/	.	.
8C/J	.	.
4A\	.	.
4C/	.	.
=123	=123	=123
4A 4F\	2cc) 2c/&)	.
4C/	.	.
4A 4F\	2r	.
4C/	.	.
!!LO:PB:g=original
=124	=124	=124
8FF/L	2r	.
8C/	.	.
8A/	.	.
8C/J	.	.
4A\	(>2aa 2a\	.
4C/	.	.
=125	=125	=125
4A 4F\	2gg#X 2g#X\	.
4C/	.	.
4A 4F\	2aa 2a\	.
4C/	.	.
=126	=126	=126
8FF/L	1ddd 1dd)	.
8C/	.	.
8A/	.	.
8C/J	.	.
4A\	.	.
4C/	.	.
=127	=127	=127
4A 4F\	[>1ccc [<1cc	.
4C/	.	.
4A 4F\	.	.
4C/	.	.
=128	=128	=128
8EE/L	(>2ccc] 2cc\]	.
8C/	.	.
8G/	.	.
8C/J	.	.
4G\	4bb- 4b-\	.
4C/	4aa 4a\	.
=129	=129	=129
4B- 4G\	2gg 2g\	.
4C/	.	.
4B- 4G\	4aa 4a\)	.
4C/	4gg 4g\	.
!!LO:LB:g=original
=130	=130	=130
8FF/L	(>1ff 1f	.
8C/	.	.
8A/	.	.
8C/J	.	.
4A\	.	.
4C/	.	.
.	16qqaaLL 16qqa/	.
.	16qqggJJ 16qqg/	.
=131	=131	=131
4A 4F\	2ff 2f\)	.
4C/	.	.
4A 4F\	2r	.
4FF/	.	.
=132	=132	=132
8DD/L	2r	.
8BBn/	.	.
8F/	.	.
8BB/J	.	.
4F\	(>2gg 2g\	.
4GG/	.	.
=133	=133	=133
4F 4BBn\	2ff#X 2f#X\	.
4GG/	.	.
4F 4BB\	2gg 2g\	.
4GG/	.	.
=134	=134	=134
8CC/L	1aa 1a^<)	.
8GG/	.	.
8E/	.	.
8GG/J	.	.
4E\	.	.
4GG/	.	.
=135	=135	=135
4E 4C/	(>[>1gg [<1g	.
4GG/	.	.
4E 4C/	.	.
4GG/	.	.
!!LO:LB:g=original
=136	=136	=136
8BBBn/L	2gg] 2g\]	.
8GG/	.	.
8D/	.	.
8GG/J	.	.
4D\	4ff#X 4f#X\	.
4GG/	4gg 4g\)	.
=137	=137	=137
4F 4D\	(>4aa 4a\	<
4GG/	4bbn 4bn\	.
4F 4D\	4ccc 4cc\	.
4GG/	4ddd 4dd\)	[[
=138	=138	=138
8CC/L	(>1eee 1ee	>
8GG/	.	.
8E/	.	.
8GG/J	.	.
4E\	.	.
4GG/	.	.
=139	=139	=139
4E 4C/	2ccc 2cc\)	]
4GG/	.	.
4E 4C/	2r	.
4GG/	.	.
=140	=140	=140
8FF#X\L	(>1ccc 1cc	.
8E-X\	.	.
8A\	.	.
8E-\J	.	.
4A\	.	.
4F#X\	.	.
=141	=141	=141
4e-X 4c 4A\	2bbn 2bn\)	.
4F#X\	.	.
4e- 4c 4A\	2aa 2a\	.
4FF#X/	.	.
!!LO:LB:g=original
=142	=142	=142
8GG\L	(>1aa 1a^<	.
8En\	.	.
8G\	.	.
8E\J	.	.
4G\	.	.
4G\	.	.
=143	=143	=143
4en 4c\	2gg 2g\)	.
4G\	.	.
4e 4c\	2r	.
4G\	.	.
=144	=144	=144
*	*8va	*
!	!LO:TX:a:t=P:problem:diminuendolike accent	!
8GG\L	(>4aaa 4aa^<\	.
8D\	.	.
8Bn\	4ggg 4gg\)	.
8D\J	.	.
!	!LO:TX:a:t=P:problem:diminuendolike accent	!
4B\	(>4aaa 4aa^<\	.
4G\	4ggg 4gg\)	.
=145	=145	=145
!	!LO:TX:a:t=P:problem:diminuendolike accent	!
4f 4d\	(>4aaa 4aa^<\	.
4G\	4ggg 4gg\	.
!	!LO:TX:a:t=P:problem:diminuendolike accent	!
4f 4d\	4fff 4ff^<\	.
4G\	4ddd 4dd/)	.
=146	=146	=146
8C\L	1ccc 1cc	.
8G\	.	.
8e\	.	.
8G\J	.	.
4e\	.	.
4G\	.	.
.	(<16qqeeeLL 16qqee/	.
.	16qqdddJJ 16qqdd/	.
=147	=147	=147
4e 4c\	2ccc 2cc/)	.
4G\	.	.
4e 4c 4B-\	2r	.
4G\	.	.
!!LO:LB:g=original
=148	=148	=148
8F\L	2r	.
8c\	.	.
8a\	.	.
8c\J	.	.
4a\	(>2aaa 2aa\	.
4c\	.	.
=149	=149	=149
4a 4f\	2ggg#X 2gg#X\	.
4c\	.	.
4a 4f\	2aaa 2aa\)	.
4c\	.	.
=150	=150	=150
8F\L	1dddd 1ddd	.
8c\	.	.
8a\	.	.
8c\J	.	.
4a\	.	.
4c\	.	.
=151	=151	=151
4a 4f\	[>1cccc [<1ccc	.
4c\	.	.
4a 4f\	.	.
4c\	.	.
=152	=152	=152
8E\L	(>2cccc] 2ccc\]	.
8c\	.	.
8g\	.	.
8c\J	.	.
4g\	4bbb- 4bb-\	.
4c\	4aaa 4aa\	.
=153	=153	=153
4b- 4g\	2ggg 2gg\	.
4c\	.	.
4b- 4g\	4aaa 4aa\	.
4c\	4ggg 4gg\)	.
!!LO:LB:g=original
=154	=154	=154
8F\L	2fff 2ff\	.
8c\	.	.
8a\	.	.
8c\J	.	.
4F\	2r	.
4r	.	.
=155	=155	=155
!	!LO:TX:b:Bi:t=cres_:ext=ud:problem:dynamics with extention lines	!
!	!	!LO:HP:b:Bi:t=cres
8E-X\L	1ffff 1fff^<	<
8A\	.	.
8f\	.	.
8A\J	.	.
4E-\	.	.
4r	.	.
=156	=156	=156
8D\L	(>[>1ffff [<1fff	.
8B-\	.	.
8f\	.	.
8B-\J	.	.
4D\	.	.
4r	.	.
=157	=157	=157
8D-X\L	2ffff] 2fff\]	.
8A-X\	.	.
8f\	.	.
8A-\J	.	.
4D-\	2bbbn 2bbn\)	.
4r	.	[[
=158	=158	=158
8C\L	[>1cccc [<1ccc	ff >
8An\	.	.
8c\	.	.
8f\J	.	.
4a	.	.
*clefG2	*	*
4cc 4a 4f'</	.	.
=159	=159	=159
4ff 4cc 4a'>\	2cccc] 2ccc\]	.
4r	.	.
*	*X8va	*
2r	(>4ff 4f\	] p
.	4gg 4g\)	.
*clefF4	*	*
!!LO:PB:g=original
=160	=160	=160
2A 2F 2C\	(>[>1aa [<1a	.
2r	.	.
=161	=161	=161
2B- 2E 2C\	4aa] 4a\]	.
.	4bb- 4b-\	.
2r	4gg 4g\	.
.	4aa 4a\)	.
=162	=162	=162
4A 4F\	4ff 4f\	p
4r	8f'</L	.
.	8f'</J	.
2F 2FF/	4f'</	.
!	!LO:TX:a:Bi:t=simile	!
.	8e'</L	.
.	8e'</J	.
=163	=163	=163
1F 1FF	4e'</	.
.	8e-X'</L	.
.	8e-'</J	.
.	4e-'</	.
.	8d'</L	.
.	8d'</J	.
=164	=164	=164
1F 1FF	4d'</	.
.	8d-X'</L	.
.	8d-'</J	.
.	4d-'</	.
.	8c'</L	.
.	8c'</J	.
=165	=165	=165
1F 1FF	4c/	.
.	8Bn/L	.
.	8B/J	.
.	4B/	.
.	8B-X/L	.
.	8B-/J	.
=166	=166	=166
2F 2FF/	4A/	.
!	!LO:TX:b:Bi:t=poco_cres_cendo_e_sempre_piu_cres_al_:ext=ud:problem:dynamics with extention lines	!
!	!	!LO:HP:b:Bi:t=poco cres_cendo e sempre piu cres al
.	8f/L	<
.	8f/J	.
2F 2FF/	4f/	.
.	8gL 8e/	.
.	8gJ 8e/	.
!!LO:LB:g=original
=167	=167	=167
2F 2FF/	4g 4e/	.
.	8aL 8e-X/	.
.	8aJ 8e-/	.
2F 2FF/	4a 4e-/	.
.	8b-L 8d/	.
.	8b-J 8d/	.
=168	=168	=168
2F 2FF/	4b- 4d/	.
.	8b-L 8d-X/	.
.	8b-J 8d-/	.
2F 2FF/	4b- 4d-/	.
.	8aL 8c/	.
.	8aJ 8c/	.
=169	=169	=169
2F 2FF/	4a 4c/	.
.	8a-XL 8Bn/	.
.	8a-J 8B/	.
2F 2FF/	4a- 4B/	.
.	8gL 8B-X/	.
.	8gJ 8B-/	.
=170	=170	=170
4F 4FF/	4f 4A/	.
4F 4FF/	8ffL 8a\	.
.	8ffJ 8a\	.
4F 4FF/	4ff 4a\	.
4F 4FF/	8eeL 8b-\	.
.	8eeJ 8b-\	.
=171	=171	=171
4F 4FF/	4ee 4b-\	.
4F 4FF/	8ee-XL 8cc\	.
.	8ee-J 8cc\	.
4F 4FF/	4ee- 4cc\	.
4F 4FF/	8ddL 8b-\	.
.	8ddJ 8b-\	.
=172	=172	=172
4F 4FF/	4dd 4b-\	.
4F 4FF/	8dd-XL 8b-\	.
.	8dd-J 8b-\	.
4F 4FF/	4dd- 4b-\	.
4F 4FF/	8ccL 8a\	.
.	8ccJ 8a\	.
!!LO:LB:g=original
=173	=173	=173
4F 4FF/	4cc 4a\	.
4F 4FF/	8ddL 8bn 8a-X\	.
.	8ddJ 8b 8a-\	.
4F 4FF/	4dd 4b 4a-\	.
4F 4FF/	8eeL 8b-X 8g\	.
.	8eeJ 8b- 8g\	.
=174	=174	=174
*tremolo	*	*
8FFF/L	4ff 4a 4f\	.
8FF/	.	.
8FFF/	8fffL 8ff\	.
8FF/J	8fffJ 8ff\	.
8FFF/L	4fff 4ff\	.
8FF/	.	.
8FFF/	8eeeL 8gg\	.
8FF/J	8eeeJ 8gg\	.
=175	=175	=175
8FFF/L	4eee 4gg\	.
8FF/	.	.
8FFF/	8eee-XL 8aa\	.
8FF/J	8eee-J 8aa\	.
8FFF/L	4eee- 4aa\	.
8FF/	.	.
8FFF/	8dddL 8bb-\	.
8FF/J	8dddJ 8bb-\	.
=176	=176	=176
8FFF/L	4ddd 4bb-\	.
8FF/	.	.
8FFF/	8ddd-XL 8bb-\	.
8FF/J	8ddd-J 8bb-\	.
8FFF/L	4ddd- 4bb-\	.
8FF/	.	.
8FFF/	8cccL 8aa\	.
8FF/J	8cccJ 8aa\	.
=177	=177	=177
8FFF/L	4ccc 4aa\	.
8FF/	.	.
8FFF/	8dddL 8bbn 8aa-X\	.
8FF/J	8dddJ 8bb 8aa-\	.
8FFF/L	4ddd 4bb 4aa-\	.
8FF/	.	.
8FFF/	8eeeL 8bb-X 8gg\	.
8FF/J	8eeeJ 8bb- 8gg\	[[
*Xtremolo	*	*
!!LO:LB:g=original
=178	=178	=178
4FF 4FFF/	4fff 4ccc 4aan 4ff\	ff
8FL 8C 8FF/	8fL 8c 8A/	.
8FJ 8C 8FF/	8fJ 8c 8A/	.
4F 4C 4FF/	4f 4c 4A/	.
*clefG2	*	*
8fL 8c 8A 8F/	8fffL 8ccc 8aa\	.
8fJ 8c 8A 8F/	8fffJ 8ccc 8aa\	.
=179	=179	=179
4f 4c 4A 4F/	4fff 4ccc 4aa\	.
*clefF4	*	*
8FL 8C 8FF/	8fL 8c 8A/	.
8FJ 8C 8FF/	8fJ 8c 8A/	.
4F 4C 4FF/	4f 4c 4A/	.
*	*8va	*
4r	8fff\L	.
.	8ggg\J	.
=180	=180	=180
4F 4C 4AA 4FF/	4.aaa\	.
4r	.	.
.	8aaa\	.
4F 4C 4AA 4FF/	8bbb-\L	.
.	8aaa\	.
4r	8ggg\	.
.	8fff\J	.
=181	=181	=181
4C 4GG 4EE 4CC/	4ggg\	.
4C 4GG 4EE 4CC/	4cccc 4ggg 4eee 4ccc\	.
2r	2r	.
=182	=182	=182
2.AA 2.AAA/	2.aaa 2.eee 2.ccc#X 2.aa\	.
4AA 4AAA/	4ggg 4eee 4ccc# 4aa\	.
=183	=183	=183
2.D 2.DD/	2.fff 2.ddd 2.aa\	.
4BB- 4BBB-/	4ggg 4ddd 4bb-\	.
*	*X8va	*
=184	=184	=184
4C 4CC/	4ccc\	.
4A 4F 4C\	4ccc\	.
4B- 4G 4C\	4ccc\	.
4B- 4G 4C\	(>8ddd\L	.
.	8fff\J)	.
!!LO:LB:g=original
=185	=185	=185
4A 4F\	(>8fff\L	.
.	8ggg\	.
4r	8aaa\	.
.	8bbb-\J	.
4r	4cccc\)	.
4F 4FF/	4r	.
=186	=186	=186
*	*8va	*
2.AA 2.AAA/	2.aaa 2.eee 2.ccc#X 2.aa\	ff
4AA 4AAA/	4ggg 4eee 4ccc# 4aa\	.
=187	=187	=187
2.D 2.DD/	2.fff 2.ddd 2.aa\	.
4BB- 4BBB-/	4ggg 4ddd 4bb-\	.
*	*X8va	*
=188	=188	=188
4C 4CC/	4ccc\	.
4A 4F 4C\	4ccc\	.
4B- 4G 4C\	4ccc\	.
4B- 4G 4C\	(>8ddd\L	.
.	8eee\J)	.
=189	=189	=189
4A 4F\	(>4fff 4aa\	.
4F 4C 4AA 4FF/	4aaa 4ccc\	.
4F 4C 4AA 4FF/	4fff 4aa\)	.
4r	4r	.
=190	=190	=190
*	*8va	*
4GG/	8gg/L	p
.	8aa/	.
4f 4Bn 4G\	8gg/	.
.	8aa/J	.
4f 4B 4G\	8gg/L	.
.	8aa/	.
4f 4B 4G\	8gg/	.
.	8aa/J	.
=191	=191	=191
4C/	4gg/	.
4e 4c 4G\	4ccc\	.
4e 4c 4G\	4eee\	.
4e 4c 4G\	4r	.
=192	=192	=192
4GG/	8ggg\L	p
.	8aaa\	.
4f 4Bn 4G\	8ggg\	.
.	8aaa\J	.
4f 4B 4G\	8ggg\L	.
.	8aaa\	.
4f 4B 4G\	8ggg\	.
.	8aaa\J	.
!!LO:LB:g=original
=193	=193	=193
4C/	4ggg'>\	.
4e 4c 4G\	4cccc'>\	.
4e 4c 4G\	4eeee'>\	.
4e 4c 4G\	4r	.
=194	=194	=194
4AA/	8aa/L	.
.	8bb-/	.
4g 4c#X 4A\	8aa/	.
.	8bb-/J	.
4g 4c# 4A\	8aa/L	.
.	8bb-/	.
4g 4c# 4A\	8aa/	.
.	8bb-/J	.
=195	=195	=195
4D\	4aa'</	.
4f 4d 4A\	4ddd'>\	.
4f 4d 4A\	4fff'>\	.
4f 4d 4A\	4r	.
=196	=196	=196
4AA/	8aaa\L	p
.	8bbb-\	<
4g 4c#X 4A\	8aaa\	.
.	8bbb-\J	.
4g 4c# 4A\	8aaa\L	.
.	8bbb-\	.
4g 4c# 4A\	8aaa\	.
.	8bbb-\J	.
=197	=197	=197
4D\	4aaa'>\	.
4f 4d 4A\	4dddd'>\	.
4f 4d 4A\	4ffff'>\	.
4f 4d 4A\	4r	[
*	*X8va	*
=198	=198	=198
4B- 4G 4E 4C\	2.bb-^<\	f
4B- 4G 4E 4C\	.	.
4B- 4G 4E 4C\	.	.
4r	(>8aa\L	.
.	8gg\J	.
=199	=199	=199
4A 4F\	2.ff^<\)	.
4F 4C 4AA 4FF/	.	.
4F 4C 4AA 4FF/	.	.
4r	(>8ee\L	.
.	8dd\J	.
!!LO:PB:g=original
=200	=200	=200
!	!LO:TX:a:t=P:problem:w źródle brak zakończenia łuku	!
!	!	!LO:DY:b:rj
4B- 4G 4E 4C\	8cc\L)	f
.	8dd\	.
4r	8cc\	.
.	8dd\J	.
4B- 4G 4E 4C\	8cc\L	.
.	8dd\	.
4r	8cc\	.
.	8dd\J	.
=201	=201	=201
4A 4F\	4cc'>\	.
4F 4C 4AA 4FF/	4ff'>\	.
4F 4C 4AA 4FF/	4aa'>\	.
4r	4r	.
=202	=202	=202
4B- 4G 4E 4C\	2.bb-^<\	.
4B- 4G 4E 4C\	.	.
4B- 4G 4E 4C\	.	.
4r	(>8aa\L	.
.	8gg\J	.
=203	=203	=203
4A 4F\	2.ff^<\)	.
4F 4C 4AA 4FF/	.	.
4F 4C 4AA 4FF/	.	.
4r	(>8ee\L	.
.	8dd\J)	.
=204	=204	=204
4B- 4G 4E 4C\	8cc\L	f
.	8dd\	.
4r	8cc\	.
.	8dd\J	.
4B- 4G 4E 4C\	8cc\L	.
.	8b-\	.
4r	8g\	.
.	8a\J	.
=205	=205	=205
4A 4F\	4f'</	.
4F 4C 4AA 4FF/	4a'</	.
4F 4C 4AA 4FF/	4f'</	.
4r	4r	.
!!LO:LB:g=original
=206	=206	=206
*	*8va	*
4B- 4G 4E 4C\	2.bbb-^<\	f
4B- 4G 4E 4C\	.	.
4B- 4G 4E 4C\	.	.
4r	(>8aaa\L	.
.	8ggg\J	.
=207	=207	=207
4A 4F\	2.fff^<\)	.
4F 4C 4AA 4FF/	.	.
4F 4C 4AA 4FF/	.	.
4r	(>8eee\L	.
.	8ddd\J)	.
=208	=208	=208
4B- 4G 4E 4C\	8ccc\L	f
.	8ddd\	.
4r	8ccc\	.
.	8ddd\J	.
4B- 4G 4E 4C\	8ccc\L	.
.	8ddd\	.
4r	8ccc\	.
.	8ddd\J	.
=209	=209	=209
4A 4F\	4ccc'>\	.
4F 4C 4AA 4FF/	4fff'>\	.
4F 4C 4AA 4FF/	4aaa'>\	.
4r	4r	.
=210	=210	=210
2B- 2G 2E 2C\	2.bbb-^<\	.
!LO:S:s=1:note:problem:note-level slur	!	!
!LO:S:s=2:note:problem:note-level slur	!	!
!LO:S:s=3:note:problem:note-level slur	!	!
!LO:S:s=4:note:problem:note-level slur	!	!
(>2B- &(>2G &&(<2E &&&(<2C#X\	.	.
.	(>8aaa\L	.
.	8ggg\J	.
=211	=211	=211
!LO:S:s=1:note:problem:note-level slur	!	!
!LO:S:s=2:note:problem:note-level slur	!	!
!LO:S:s=3:note:problem:note-level slur	!	!
!LO:S:s=4:note:problem:note-level slur	!	!
4A) 4F&) 4D\&&)&&&)	2.fff^<\)	.
4r	.	.
4G#X 4F 4D 4BBn\	.	.
4r	(>8eee\L	.
.	8ddd\J)	.
=212	=212	=212
4A 4F 4C\	8ccc\L	f
.	8ddd\	.
4r	8ccc\	.
.	8ddd\J	.
4B- 4G 4E 4C\	8ccc\L	.
.	8bb-\	.
4r	8gg\	.
.	8aa\J	.
!!LO:LB:g=original
=213	=213	=213
4A 4F\	4ff/	.
*	*X8va	*
4r	4r	.
4G#X 4F 4D 4BBn\	4ff\	.
4r	8ee\L	.
.	8dd\J	.
=214	=214	=214
4A 4F 4C\	8cc\L	.
.	8dd\	.
4r	8cc\	.
.	8dd\J	.
4B- 4G 4C\	8cc\L	.
.	8b-\	.
4r	8g\	.
.	8a\J	.
=215	=215	=215
4A 4F\	4f/	.
4r	4r	.
4G#X 4F 4D 4BBn\	4fff\	sf
4r	8eee\L	.
.	8ddd\J	.
=216	=216	=216
4c 4A 4F 4C\	(>8ccc\L	ff
.	8ddd\	.
4r	8ccc\	.
.	8ddd\J	.
4c 4G 4E 4C\	8ccc\L	.
.	8ddd\	.
4r	8ccc\	.
.	8bb-\J	.
=217	=217	=217
4c 4A 4F\	8aa\L	.
.	8bb-\	.
4r	8aa\	.
.	8bb-\J	.
4A 4E 4C#X\	8aa\L	.
.	8bb-\	.
4r	8aa\	.
.	8gg\J	.
=218	=218	=218
4A 4F 4D\	8ff\L	.
.	8gg\	.
4r	8ff\	.
.	8gg\J	.
4F 4C 4AA/	8ff\L	.
.	8gg\	.
4r	8ff\	.
.	8ee-X\J)	.
!!LO:LB:g=original
=219	=219	=219
!	!	!LO:DY:b:rj
4F 4D 4BB-\	(>8dd\L	ff
.	8ee-X\	.
4r	8dd\	.
.	8ee-\J	.
4D 4AA 4FF#X/	8dd\L	.
.	8ee-\	.
4r	8dd\	.
.	8cc\J	.
=220	=220	=220
4D 4BB- 4GG'</	8b-\L	.
.	8cc\	.
8r	8b-\	.
8D 8AA'</	8a\J	.
4D 4BB-'</	8g/L	.
.	8a/	.
8r	8g/	.
8D 8C'</	8f#X/J)	.
=221	=221	=221
8D 8BB-'</	(>8g/L	.
8r	8f#X/	.
4r	8g/	.
.	8a/J	.
8BB-/L	8b-\L	.
8AA/	8a\	.
8BB-/	8b-\	.
8C/J	8cc\J	.
=222	=222	=222
8D\L	8dd\L	ff
8C#X\	8cc#X\	.
8D\	8dd\	.
8F#X\J	8ff#X\J	.
8G\L	8gg\L	.
8F#\	8ff#\	.
8G\	8gg\	.
8A\J	8aa\J	.
=223	=223	=223
8B-\L	8bb-\L	.
8A\	8aa\	.
8B-\	8bb-\	.
8c\J	8ccc\J	.
8d\L	8ddd\L	.
8c#X\	8ccc#X\	.
8d\	8ddd\	.
8e\J	8eee\J)	.
!!LO:LB:g=original
=224	=224	=224
8f\L	(>8fff\L	.
8e\	8eee\	.
8f\	8fff\	.
8e\J	8eee\J	.
4f\	8fff\L	.
.	8eee\	.
4r	8fff\	.
.	8ddd\J)	.
=225	=225	=225
*tremolo	*tremolo	*
(>8C\L	(>8aa\L	ff
8c\	8ccc\	.
8C\	8aa\	.
8c\J)	8ccc\J)	.
(>8C\L	(>8bbnL 8aa-X\	.
8c\	8ddd\	.
8C\	8bb 8aa-\	.
8c\J)	8ddd\J)	.
=226	=226	=226
(>8C\L	(>8bb-XL 8gg\	.
8c\	8eee\	.
8C\	8bb- 8gg\	.
8c\J)	8eee\J)	.
(>8C\L	(>8aaL 8ff\	.
8c\	8fff\	.
8C\	8aa 8ff\	.
8c\J)	8fff\J)	.
=227	=227	=227
(>8GL 8C\	(>8dddL 8bbn\	.
8Bn\	8ggg\	.
8G 8C\	8ddd 8bb\	.
8B\J)	8ggg\J)	.
(>8GL 8C\	(>8dddL 8bb\	.
8B\	8ggg\	.
8G 8C\	8ddd 8bb\	.
8B\J)	8ggg\J)	.
=228	=228	=228
*	*8va	*
(>8GL 8E 8C\	(>8eeeL 8ccc\	.
8B-X\	8cccc\	.
8G 8E 8C\	8eee 8ccc\	.
8B-\J)	8cccc\J)	.
(>8GL 8E 8C\	(>8eeeL 8ccc\	.
8B-\	8cccc\	.
8G 8E 8C\	8eee 8ccc\	.
8B-\J)	8cccc\J)	.
*Xtremolo	*Xtremolo	*
=229	=229	=229
4A 4F\	4fff\	ff
!	!LO:TX:a:t=P:problem:diminuendolike accent	!
2D-X 2DD-X/	2fff 2aa-X 2ff^<\	.
4D- 4DD-/	4fff 4aa- 4ff\	.
!!LO:LB:g=original
=230	=230	=230
4BB- 4BBB-/	4ddd-X 4gg 4ff/	.
!	!LO:TX:a:t=P:problem:diminuendolike accent	!
2C 2CC/	2ddd- 2bb- 2gg 2ee^</	.
4C 4CC/	4ccc 4bb- 4gg 4ee/	.
=231	=231	=231
4F 4FF/	4aa 4ff/	.
!	!LO:TX:a:t=P:problem:diminuendolike accent	!
2D-X 2DD-X/	2fff 2aa-X 2ff^<\	.
4D- 4DD-/	4fff 4aa- 4ff\	.
=232	=232	=232
4BB- 4BBB-/	4ddd-X 4gg 4ff/	.
!	!LO:TX:a:t=P:problem:diminuendolike accent	!
2C 2CC/	2ddd- 2bb- 2gg 2ee^</	.
4C 4CC/	4ccc 4bb- 4gg 4ee/	.
=233	=233	=233
4F 4FF/	4aa 4ff/	.
!	!LO:TX:a:t=P:problem:diminuendolike accent	!
2C 2CC/	2ddd-X 2bb- 2gg 2ee^</	.
4C 4CC/	4ccc 4bb- 4gg 4ee/	.
=234	=234	=234
4F 4FF/	4aa 4ff/	.
!	!LO:TX:a:t=P:problem:diminuendolike accent	!
2C 2CC/	2dddn 2bb- 2gg 2ee^</	.
4C 4CC/	4ccc 4bb- 4gg 4ee/	.
=235	=235	=235
4F 4FF/	4aa 4ff/	.
2C 2CC/	2ddd-X 2bb- 2gg 2ee/	.
4C 4CC/	4ccc 4bb- 4gg 4ee/	.
=236	=236	=236
4F 4FF/	4aa 4ff/	.
2C 2CC/	2dddn 2bb- 2gg 2ee/	.
4C 4CC/	4ccc 4bb- 4gg 4ee/	.
=237	=237	=237
4FF 4FFF/	4fff 4aa 4ff\	ff
*	*X8va	*
4r	4r	.
*tremolo	*	*
!	!	!LO:DY:b=2:rj
(<8CL 8AA 8FF/	2r	fz
8F/	.	.
8C 8AA 8FF/	.	.
8F/J)	.	.
!!LO:PB:g=original
=238	=238	=238
(<8CL 8AA 8FF/	(>8fff\L	.
8F/	8aaa\J)	.
8C 8AA 8FF/	4ccc\	.
8F/J)	.	.
(<8CL 8AA 8FF/	(>8ccc\L	.
8F/	8fff\J)	.
8C 8AA 8FF/	4aa\	.
8F/J)	.	.
*Xtremolo	*	*
=239	=239	=239
4C 4AA 4FF'</	4aa'>\	.
4r	4r	.
*tremolo	*	*
!	!	!LO:DY:b=2:rj
(<8CL 8AA 8FF/	2r	fz
8F/	.	.
8C 8AA 8FF/	.	.
8F/J)	.	.
=240	=240	=240
(<8CL 8AA 8FF/	(8aa\L	.
8F/	8ccc\J)	.
8C 8AA 8FF/	4ff\	.
8F/J)	.	.
(<8CL 8AA 8FF/	(8ff\L	.
8F/	8aa\J)	.
8C 8AA 8FF/	4cc\	.
8F/J)	.	.
*Xtremolo	*	*
=241	=241	=241
4C 4AA 4FF'</	4ff'>\	.
4r	4r	.
*tremolo	*	*
!	!	!LO:DY:b=2:rj
(<8CL 8AA 8FF/	2r	fz
8F/	.	.
8C 8AA 8FF/	.	.
8F/J)	.	.
=242	=242	=242
!	!LO:TX:b:Bi:t=dimin_:ext=ud:problem:dynamics with extention lines	!
!	!	!LO:HP:b:Bi:t=dimin
(<8CL 8AA 8FF/	(>8ff\L	>
8F/	8aa\J)	.
8C 8AA 8FF/	4cc\	.
8F/J)	.	.
(<8CL 8AA 8FF/	(>8cc\L	.
8F/	8ff\J)	.
8C 8AA 8FF/	4a/	.
8F/J)	.	.
*Xtremolo	*	*
=243	=243	=243
4C 4AA 4FF'</	4a'</	.
4r	4r	.
*tremolo	*	*
(<8CL 8AA 8FF/	2r	.
8F/	.	.
8C 8AA 8FF/	.	.
8F/J)	.	.
=244	=244	=244
(<8CL 8AA 8FF/	(<8a/L	.
8F/	8cc/J)	.
8C 8AA 8FF/	4f/	.
8F/J)	.	.
(<8CL 8AA 8FF/	(<8f/L	.
8F/	8a/J)	.
8C 8AA 8FF/	4c/	.
8F/J)	.	]
*Xtremolo	*	*
!!LO:LB:g=original
=245	=245	=245
[>1C [>1AA [<1FF	4f'</	p
.	4r	.
.	2r	.
=246	=246	=246
1C_> 1AA_> 1FF_<	(<8a/L	.
.	8cc/J)	.
.	4f/	.
.	2r	.
*	*clefF4	*
=247	=247	=247
1C] 1AA] 1FF]	(>8A\L	.
.	8c\J)	.
.	4F\	.
.	2r	.
=248	=248	=248
(<8AAA/L	1r	.
8CC/J	.	.
4FFF/)	.	.
2r	.	.
=249	=249	=249
!LO:TX:a:t=Tromboni	!	!
!	!	!LO:DY:b=2:rj
1F 1FF	1r	ff
=250	=250	=250
1F 1FF	1r	.
=251	=251	=251
2F 2FF/	1r	.
4.F 4.FF/	.	.
8F 8FF/	.	.
=252	=252	=252
2F 2FF/	1r	.
2E-X 2EE-X/	.	.
=253	=253	=253
!LO:TX:a:Bi:t=con forza	!	!
2D-X 2DD-X/	1r	.
4.C 4.CC/	.	.
8D- 8DD-/	.	.
=254	=254	=254
2F 2FF/	1r	.
4.D-X 4.DD-X/	.	.
8BB- 8BBB-/	.	.
!!LO:LB:g=original
=255	=255	=255
*	*clefG2	*
*tremolo	*	*
(<16AAA-X/LL	4r	ff
16AA-X/	.	.
16AAA-/	.	.
16AA-/	.	.
*	*8va	*
16AAA-/	(>8ggg-X\L	.
16AA-/	.	.
16AAA-/	8gggg-X\J)	.
16AA-/JJ)	.	.
<16AAA-/LL	(>8eee-X\L	.
16AA-/	.	.
16AAA-/	8eeee-X\J)	.
16AA-/	.	.
16AAA-/	(>8ccc\L	.
16AA-/	.	.
16AAA-/	8cccc\J)	.
16AA-/JJ)	.	.
*Xtremolo	*	*
=256	=256	=256
4AA-X 4AAA-X/	(>8aa-X\L	.
.	8aaa-X\J)	.
4G-X 4E-X 4C 4AA-\	(>8gg-X\L	.
.	8ggg-X\J)	.
4G- 4E- 4C 4AA-\	(>8ee-X\L	.
.	8eee-X\J)	.
4G- 4E- 4C 4AA-\	(<8cc/L	.
.	8ccc/J)	.
=257	=257	=257
2F 2D-X\	4ddd-X 4dd-X/	.
*	*X8va	*
.	4r	.
4.C 4.CC/	2r	.
8D-X 8DD-X/	.	.
=258	=258	=258
2F 2FF/	1r	.
4.D-X 4.DD-X/	.	.
8C-X 8CC-X/	.	.
=259	=259	=259
*tremolo	*	*
(<16BBB-/LL	4r	.
16BB-/	.	.
16BBB-/	.	.
16BB-/	.	.
*	*8va	*
16BBB-/	(>8aaa-X\L	.
16BB-/	.	.
16BBB-/	8aaaa-X\J)	.
16BB-/JJ)	.	.
(<16BBB-/LL	(>8fff\L	.
16BB-/	.	.
16BBB-/	8ffff\J)	.
16BB-/	.	.
16BBB-/	(>8ddd\L	.
16BB-/	.	.
16BBB-/	8dddd\J)	.
16BB-/JJ)	.	.
*Xtremolo	*	*
=260	=260	=260
4BB- 4BBB-/	(>8bb-\L	.
.	8bbb-\J)	.
4F 4D 4BB-\	(>8aa-X\L	.
.	8aaa-X\J)	.
4F 4D 4BB-\	(>8ff\L	.
.	8fff\J)	.
4A-X 4F 4D 4BB-\	(<8dd/L	.
.	8ddd/J)	.
!!LO:LB:g=original
=261	=261	=261
2G-X 2E-X\	4eee-X 4ee-X'</	.
*	*X8va	*
.	4r	.
4.D 4.DD/	2r	.
8E- 8EE/	.	.
=262	=262	=262
2G-X 2GG-X/	1r	.
4.E-X 4.EE-X/	.	.
8D-X 8DD-X/	.	.
=263	=263	=263
*tremolo	*	*
16CC/LL	4r	.
16C/	.	.
16CC/	.	.
16C/	.	.
16CC/	(>8bb-\L	.
16C/	.	.
16CC/	8bbb-\J)	.
16C/JJ	.	.
16CC/LL	(>8gg\L	.
16C/	.	.
16CC/	8ggg\J)	.
16C/	.	.
16CC/	(>8ee\L	.
16C/	.	.
16CC/	8eee\J)	.
16C/JJ	.	.
*Xtremolo	*	*
=264	=264	=264
4C 4CC/	(>8cc\L	.
.	8ccc\J)	.
4G 4E 4C\	(>8b-\L	.
.	8bb-\J)	.
4G 4E 4C\	(>8g\L	.
.	8gg\J)	.
4B- 4G 4E 4C\	(>8e\L	.
.	8ee\J)	.
=265	=265	=265
*	*^	*
2A-X 2F\	4ff/	8a-X\L	.
.	.	8cc\J	.
.	4f\	2.ryy	.
4.En 4.EEn/	2r	.	.
8F 8FF/	.	.	.
*	*v	*v	*
=266	=266	=266
(>1AA-X &(<1AAA-X	2fff 2ff\	.
.	4.eee 4.ee\	.
.	8fff 8ff\	.
=267	=267	=267
4GG) 4GGG/&)	(>8ddd\L	.
.	8fff\J)	.
(<8DL 8BBn 8GG/	4bbn\	.
8F/J)	.	.
*tremolo	*	*
(<8DL 8BB 8GG/	(>8bb\L	.
8F/	8ddd\J)	.
8D 8BB 8GG/	4gg\	.
8F/J)	.	.
!!LO:LB:g=original
=268	=268	=268
(<8DL 8BBn 8GG/	(>8gg\L	.
8F/	8bbn\J)	.
8D 8BB 8GG/	4dd\	.
8F/J)	.	.
(<8DL 8BB 8GG/	(>8dd\L	.
8F/	8gg\J)	.
8D 8BB 8GG/	4b-\	.
8F/J)	.	.
*Xtremolo	*	*
=269	=269	=269
!	!	!LO:DY:b=2:rj
2E-X 2C\	4cc 4e-X'</	f
.	4r	.
4.Bn 4.BBn\	2r	.
8c 8C\	.	.
=270	=270	=270
(>1E-X &(<1EE-X	2ccc 2cc\	.
.	4.bbn 4.bn\	.
.	8ccc 8cc\	.
=271	=271	=271
4D) 4DD/&)	(>8aan\L	.
.	8ccc\J)	.
(>8F#XL 8D\	4ff#X\	.
8c\J)	.	.
*tremolo	*	*
(>8F#L 8D\	(>8ff#\L	.
8c\	8aa\J)	.
8F# 8D\	4dd\	.
8c\J)	.	.
=272	=272	=272
(>8F#XL 8D\	(>8dd\L	.
8c\	8ff#X\J)	.
8F# 8D\	4a/	.
8c\J)	.	.
(>8F#L 8D\	(>8a\L	.
8c\	8dd\J)	.
8F# 8D\	4f#X/	.
8c\J)	.	.
*Xtremolo	*	*
=273	=273	=273
!	!	!LO:DY:b=2
2B- 2G\	4g/	ff
.	4r	.
4.F#X 4.FF#X/	2r	.
8G 8GG/	.	.
=274	=274	=274
(>1BB- &(<1BBB-	2ggg 2gg\	f
.	4.fff#X 4.ff#X\	.
.	8ggg 8gg\	.
!!LO:LB:g=original
=275	=275	=275
4AA) 4AAA/&)	(>8eee\L	.
.	8ggg\J)	.
(<8EL 8C#X 8AA/	4ccc#X\	.
8G/J)	.	.
*tremolo	*	*
(<8EL 8C# 8AA/	(>8ccc#\L	.
8G/	8eee\J)	.
8E 8C# 8AA/	4aa\	.
8G/J)	.	.
=276	=276	=276
(<8EL 8C#X 8AA/	(>8aa\L	.
8G/	8ccc#X\J)	.
8E 8C# 8AA/	4ee\	.
8G/J)	.	.
(<8EL 8C# 8AA/	(>8ee\L	.
8G/	8aa\J)	.
8E 8C# 8AA/	4cc#X\	.
8G/J)	.	.
*Xtremolo	*	*
=277	=277	=277
!	!	!LO:DY:b=2:rj
2F 2D\	4dd 4f/	ff
.	4r	.
4.C#X 4.CC#X/	2r	.
8D 8DD/	.	.
=278	=278	=278
1F 1FF	2ddd 2dd\	f
.	4.ccc#X 4.cc#X\	.
.	8ddd 8dd\	.
=279	=279	=279
*tremolo	*	*
8DL 8BB-\	(>8ddd\L	.
8F\	8fff\J)	.
8D 8BB-\	4ddd\	.
8F\J	.	.
8DL 8BB-\	(>8gg#X\L	.
8F\	8ddd\J)	.
8D 8BB-\	4gg#\	.
8F\J	.	.
=280	=280	=280
8DL 8BB-\	(>8ff\L	.
8F\	8gg#X\J)	.
8D 8BB-\	4ff\	.
8F\J	.	.
8DL 8BB-\	(>8dd\L	.
8F\	8ff\J)	.
8D 8BB-\	4g#X/	.
8F\J	.	.
*Xtremolo	*	*
=281	=281	=281
1A 1E 1C#X 1AA	4a/	.
.	4r	.
.	2r	.
*	*clefF4	*
!!LO:PB:g=original
=282	=282	=282
2EE 2CC#X 2AAA/	(>8C#X\L	f
.	8E\J)	.
.	4AA/	.
2r	2r	.
*	*clefG2	*
=283	=283	=283
*	*^	*
*	*8va	*8va	*
!LO:TX:a:t=Fag.	!	!	!
2G\	(>8bbb-/L	2r	.
.	8dddd/J	.	.
.	4ggg/)	.	.
*	*X8va	*X8va	*
!	!LO:TX:b:t=Clar.	!	!
!	!LO:TX:b:t=Cor.	!	!
2d>\	(>8bb-/L	2b-\	p
.	8ddd/J	.	.
.	4gg/)	.	.
*	*v	*v	*
=284	=284	=284
1b-> 1e> 1c	(>8ee/L	.
.	8gg/J	.
.	4cc/)	.
!	!LO:TX:b:Bi:t=m. d.	!
.	(<8E</L	.
.	8G</J	.
.	4C</)	.
=285	=285	=285
*	*8va	*
2F\	(>8aaa/L	.
.	8cccc/J	.
.	4fff/)	.
*	*X8va	*
2a> 2e>\	(>8aa/L	.
.	8ccc/J	.
.	4ff/)	.
=286	=286	=286
1a 1d 1B-	(>8ff/L	.
.	8aa/J	.
.	4dd/)	.
!	!LO:TX:b:Bi:t=m.d.	!
.	(<8D</L	.
.	8F</J	.
.	4BB-</)	.
!!LO:LB:g=original
=287	=287	=287
*	*8va	*
2E\	(<8ggg/L	.
.	8bbb-/J	.
.	4eee/)	.
*	*X8va	*
2g> 2d>\	(<8gg/L	.
.	8bb-/J	.
.	4ee/)	.
=288	=288	=288
!	!	!LO:DY:b:rj
1g> 1c#X> 1A	(<8cc#X/L	p
.	8ee/J	.
.	4a/)	.
!	!LO:TX:b:Bi:t=m. d.	!
.	(<8C#X</L	.
.	8E</J	.
.	4AA</)	.
=289	=289	=289
*	*8va	*
2D\	(<8fff/L	.
.	8aaa/J	.
.	4ddd/)	.
*	*X8va	*
2f> 2A\	(<8ff/L	.
.	8aa/J	.
.	4dd/)	.
=290	=290	=290
*^	*	*
2F 2D/	2BB-\	(<8dd/L	.
.	.	8ff/J	.
.	.	4g#X/)	.
(>8D\L	2ryy	2g# 2d^>/	.
8F\J	.	.	.
4BB-\)	.	.	.
*v	*v	*	*
=291	=291	=291
*tremolo	*	*
(<8AAA/L	(>4a 4c#X/	<
8AA/	.	.
8AAA/	4a 4e 4c#/	.
8AA/J)	.	.
(<8AAA/L	4b- 4f 4d/	.
8AA/	.	.
8AAA/	4bn 4f#X 4d#X/	.
8AA/J)	.	.
!!LO:LB:g=original
=292	=292	=292
*	*^	*
*	*	*^	*
(<8AAA/L	4cc/	2g 2e\	2ryy	.
8AA/	.	.	.	.
8AAA/	4cc#X/	.	.	.
8AA/J)	.	.	.	.
(<8AAA/L	4dd/	2a\	4f\	.
8AA/	.	.	.	.
8AAA/	4dd#X/)	.	4f#X\	.
8AA/J)	.	.	.	[[
*Xtremolo	*	*	*	*
*	*	*v	*v	*
*	*v	*v	*
=293	=293	=293
*^	*	*
*	*^	*	*
[<1AA	2ryy	2AAA\	4ee 4b- 4g\	f
*	*	*	*8va	*
.	.	.	(>8ggg\L	.
.	.	.	8gggg\J)	.
.	2B-/	2G\	(>8eee\L	.
.	.	.	8eeee\J)	.
.	.	.	(>8ccc#X\L	.
.	.	.	8cccc#X\J)	>
=294	=294	=294	=294	=294
1AA_<	2A/	2F#X\	(>8ddd\L	.
.	.	.	8dddd\J)	.
.	.	.	(>8aa\L	.
.	.	.	8aaa\J)	.
.	2G#X/	2Fn 2D\	(>8ffn\L	.
.	.	.	8fffn\J)	.
.	.	.	(<8dd/L	.
.	.	.	8ddd/J)	]]
*	*v	*v	*	*
*v	*v	*	*
=295	=295	=295
4A 4E 4C 4AA\]	(>4aa/	<
*	*X8va	*
(<8AAA/L	4a 4e 4c#X/	.
8AA/J)	.	.
*tremolo	*	*
(<8AAA/L	4b- 4f 4d/	.
8AA/	.	.
8AAA/	4bn 4f#X 4d#X/	.
8AA/J)	.	.
=296	=296	=296
*	*^	*
*	*	*^	*
(<8AAA/L	4cc/	2g\ 2e\	2ryy	.
8AA/	.	.	.	.
8AAA/	4cc#X/	.	.	.
8AA/J)	.	.	.	.
(<8AAA/L	4dd/	2a\	4f\	.
8AA/	.	.	.	.
8AAA/	4dd#X/)	.	4f#X\	.
8AA/J)	.	.	.	[[
*Xtremolo	*	*	*	*
!!LO:LB:g=original
*	*	*v	*v	*
*	*v	*v	*
=297	=297	=297
*^	*	*
*	*^	*	*
[<1AA	2ryy	2AAA\	4ee 4b- 4g'>\	f
*	*	*	*8va	*
.	.	.	(>8ggg\L	.
.	.	.	8gggg\J)	.
.	2B-/	2G\	(>8eee\L	.
.	.	.	8eeee\J)	.
.	.	.	(>8ccc#X\L	.
.	.	.	8cccc#X\J)	.
=298	=298	=298	=298	=298
1AA_<	2A/	2F#X\	(>8ddd\L	>
.	.	.	8dddd\J)	.
.	.	.	(>8aa\L	.
.	.	.	8aaa\J)	.
.	2G#X/	2Fn\	(>8ffn\L	.
.	.	.	8fffn\J)	.
.	.	.	(<8dd/L	.
.	.	.	8ddd/J)	]]
*	*v	*v	*	*
=299	=299	=299	=299
*	*	*^	*
!	!	!	!	!LO:DY:b:rj
4AA\]	4A 4E 4C#X/	4aa/	8cc#X\L	p
.	.	.	8ee\J	.
4r	2.ryy	4a\	2.ryy	.
*	*	*X8va	*	*
*tremolo	*	*	*	*
8AAA/L	.	(>2ee 2cc#X 2b- 2g\	.	.
8AA/	.	.	.	.
8AAA/	.	.	.	.
8AA/J	.	.	.	.
*v	*v	*	*	*
*	*v	*v	*
=300	=300	=300
8AAA/L	2ee-X 2cc 2a 2f#X/	.
8AA/	.	.
8AAA/	.	.
8AA/J	.	.
8AAA/L	2dd 2b- 2g#X 2fn/	.
8AA/	.	.
8AAA/	.	.
8AA/J	.	.
=301	=301	=301
8AAA/L	1cc#X 1a 1e	.
8AA/	.	.
8AAA/	.	.
8AA/J	.	.
8AAA/L	.	.
8AA/	.	.
8AAA/	.	.
8AA/J	.	.
!!LO:LB:g=original
=302	=302	=302
8AAA/L	2ccn 2a 2f 2e-X/	.
8AA/	.	.
8AAA/	.	.
8AA/J	.	.
8AAA/L	2bn 2g#X 2fn 2d/	.
8AA/	.	.
8AAA/	.	.
8AA/J	.	.
=303	=303	=303
8AAA/L	2a 2e 2c#X/)	.
8AA/	.	.
8AAA/	.	.
8AA/J	.	.
*	*clefF4	*
8AAA/L	(>2e 2c#X 2B- 2G\	.
8AA/	.	.
8AAA/	.	.
8AA/J	.	.
=304	=304	=304
8AAA/L	2e-X 2cn 2A 2F#X\	.
8AA/	.	.
8AAA/	.	.
8AA/J	.	.
8AAA/L	2d 2Bn 2G#X 2Fn\	.
8AA/	.	.
8AAA/	.	.
8AA/J	.	.
=305	=305	=305
8AAA/L	1c#X 1A 1E	.
8AA/	.	.
8AAA/	.	.
8AA/J	.	.
8AAA/L	.	.
8AA/	.	.
8AAA/	.	.
8AA/J	.	.
=306	=306	=306
8AAA/L	2cn 2A 2F#X 2E-X\	.
8AA/	.	.
8AAA/	.	.
8AA/J	.	.
8AAA/L	2Bn 2G#X 2Fn 2D\	.
8AA/	.	.
8AAA/	.	.
8AA/J	.	.
=307	=307	=307
8AAA/L	2A 2E 2C#X\	.
8AA/	.	.
8AAA/	.	.
8AA/J	.	.
8AAA/L	2c#X 2A 2E\	.
8AA/	.	.
8AAA/	.	.
8AA/J	.	.
!!LO:LB:g=original
=308	=308	=308
8AAA/L	2cn 2A 2F#X 2E-X\	.
8AA/	.	.
8AAA/	.	.
8AA/J	.	.
8AAA/L	2Bn 2G#X 2Fn 2D\)	.
8AA/	.	.
8AAA/	.	.
8AA/J	.	.
=309	=309	=309
8AAA/L	(>2A 2E 2C#X\	.
8AA/	.	.
8AAA/	.	.
8AA/J	.	.
8AAA/L	2c#X 2A 2E\	.
8AA/	.	.
8AAA/	.	.
8AA/J	.	.
=310	=310	=310
8AAA/L	2cn 2A 2F#X 2E-X\	.
8AA/	.	.
8AAA/	.	.
8AA/J	.	.
8AAA/L	2Bn 2G#X 2Fn 2D\	.
8AA/	.	.
8AAA/	.	.
8AA/J	.	.
*Xtremolo	*	*
=311	=311	=311
1AA 1AAA	(>1A 1E 1C#X)	.
=312	=312	=312
1AA 1AAA	1c#X 1A 1E	.
=313	=313	=313
!	!LO:TX:b:Bi:t=poco rallen_:dur=6w:ext=ud:problem:text with extention lines	!
1FF 1FFF	1cn 1A 1F	.
=314	=314	=314
1D 1DD	1d 1A 1F	.
=315	=315	=315
1BB- 1BBB-	1d 1B- 1F	.
=316	=316	=316
1GG 1GGG	1d 1B- 1G	.
=317	=317	=317
1EE-X 1EEE-X	1e-X 1B- 1G	.
=318	=318	=318
1GG#X 1GGG#X	1d 1Bn 1F	.
=319	=319	=319
*tremolo	*tremolo	*
!LO:TX:a:Bi:t=trem	!	!
16AALL 16AAA;</	16c#XLL 16A 16E;>\	<
16AA 16AAA/	16c# 16A 16E\	.
16AA 16AAA/	16c# 16A 16E\	.
16AA 16AAA/	16c# 16A 16E\	.
16AA 16AAA/	16c# 16A 16E\	.
16AA 16AAA/	16c# 16A 16E\	.
16AA 16AAA/	16c# 16A 16E\	.
16AA 16AAA/	16c# 16A 16E\	.
16AA 16AAA/	16c# 16A 16E\	[ f >
16AA 16AAA/	16c# 16A 16E\	.
16AA 16AAA/	16c# 16A 16E\	.
16AA 16AAA/	16c# 16A 16E\	.
16AA 16AAA/	16c# 16A 16E\	.
16AA 16AAA/	16c# 16A 16E\	.
16AA 16AAA/	16c# 16A 16E\	.
16AAJJ 16AAA/	16c#JJ 16A 16E\)	]]
*Xtremolo	*Xtremolo	*
!!LO:PB:g=original
=320||	=320||	=320||
!!!OMD: Andante sostenuto.
*	*clefG2	*
*M4/4	*M4/4	*
*met(c)	*met(c)	*
!LO:TX:a:t=Clarinetto Basso.	!	!
!LO:TX:b:Bi:t=espressivo	!	!
(>2F\	1r	.
4AA/	.	.
16GG#X/LL	.	.
!	!	!LO:HP:b=2
16AA/	.	<
16D/	.	.
16E/JJ)	.	.
=321	=321	=321
(>4..F\	1r	.
16E\	.	.
4D\	.	.
16C#X\LL	.	[
16D\	.	.
16F\	.	.
16G\JJ)	.	.
=322	=322	=322
!	!	!LO:DY:b=2:rj
[>4A\	1r	f
!LO:TUP:a	!	!
(>12A\L]	.	.
12G\	.	.
12F\J)	.	.
!LO:TX:a:t=P:problem:diminuendolike accent	!	!
!LO:TUP:a	!	!
(>12F^<\L	.	.
12E\	.	.
12D\J)	.	.
!LO:TX:a:t=P:problem:diminuendolike accent	!	!
!LO:TUP:a	!	!
(>12D^<\L	.	.
12C\	.	.
12BB-\J)	.	.
!!LO:LB:g=original
=323	=323	=323
(>2BB- &(<2BBB-^>/	4r	.
*	*clefF4	*
*	*tremolo	*
!	!LO:TX:b:Bi:t=trem	!
!	!LO:TX:a:t=V.no\nVIIo.:rj	!
.	32dLLL 32G#X 32E\	>
.	32d 32G# 32E\	.
.	32d 32G# 32E\	.
.	32d 32G# 32E\	.
.	32d 32G# 32E\	.
.	32d 32G# 32E\	.
.	32d 32G# 32E\	.
.	32dJJJ 32G# 32E\	.
*	*Xtremolo	*
16AA) 16AAA/&)	16c#X 16A 16E'\	] p
*clefG2	*clefG2	*
!	!LO:TX:a:t=Flau.\nOb.\nClar.	!
16c#X'</LL	16aLL 16e'>\	.
16e'</	16cc#X 16a'>\	.
16a'</JJ	16eeJJ 16cc#'>\	.
8cc#X'>\	8aa 8ee'>\	.
8r	8r	.
*clefF4	*	*
=324	=324	=324
!	!	!LO:HP:b=2
(>2D\	1r	<
4AA/	.	.
16GG#X/LL	.	.
16AA/	.	.
16D/	.	.
16E/JJ)	.	[
=325	=325	=325
!LO:TX:a:t=P:problem:diminuendolike accent	!	!
!	!	!LO:HP:b=2
4..F^>\	1r	>
(>16E\	.	.
4D\	.	]
!	!	!LO:HP:b=2
.	.	<
16C#X\LL	.	.
16D\	.	.
16F\	.	.
16A\JJ)	.	.
=326	=326	=326
!	!	!LO:DY:b=2
[>4d\	1r	[ f
!LO:TUP:a	!	!
(>12d\L]	.	.
12G#X\	.	.
12A\J)	.	.
!LO:TX:a:t=P:problem:diminuendolike accent	!	!
!LO:TUP:a	!	!
(>12B-^<\L	.	.
12A\	.	.
12E\J)	.	.
!LO:TX:a:t=P:problem:diminuendolike accent	!	!
!LO:TUP:a	!	!
(>12Gn^<\L	.	.
12F\	.	.
12D\J)	.	.
!!LO:LB:g=original
=327	=327	=327
(>2D-X &(<2DD-X^>/	4r	.
*	*clefF4	*
*	*tremolo	*
!	!LO:TX:b:Bi:t=trem	!
.	32BnLLL 32G 32F\	>
.	32B 32G 32F\	.
.	32B 32G 32F\	.
.	32B 32G 32F\	.
.	32B 32G 32F\	.
.	32B 32G 32F\	.
.	32B 32G 32F\	.
.	32BJJJ 32G 32F\	.
*	*Xtremolo	*
16C) 16CC/&)	16c 16G 16E'>\	] p
*clefG2	*clefG2	*
16e'>\LL	16ccLL 16g'>\	.
16g'>\	16ee 16cc'>\	.
16cc'>\JJ	16ggJJ 16ee'>\	.
8ee'>\	8ccc 8gg'>\	.
8r	8r	.
=328	=328	=328
!LO:TX:a:t=Fag.	!LO:TX:a:t=Ob.\nClar.	!
(<2c/	(>2ee-X 2a &(<2f#X\	>
4Bn/)	4dd) 4g\&)	.
4r	4r	]
*clefF4	*clefF4	*
=329	=329	=329
*	*^	*
!LO:TX:a:t=Tromboni.	!	!	!
(<2BB-X 2BBB-X/	1f 1F	(>2G#X\	<
4AA 4AAA/	.	4A\	.
4GG#X 4GGG#X/)	.	4Bn\)	[[
*	*v	*v	*
=330	=330	=330
*^	*	*
[<1AA	2AAA\	8d 8A 8F\	.
*	*	*clefG2	*
!	!	!LO:TX:a:t=Ob.\nClar.	!
.	.	4aa 4ff 4dd^<\	.
.	.	[>8ff [>8dd [<8a^<\	.
.	2A/	(>8ff]L 8dd] 8a\]	>
.	.	8dd 8a 8f\	.
.	.	8a 8f 8d\	.
.	.	8fJ 8d\)	]]
=331	=331	=331	=331
*	*	*^	*
!	!	!LO:TX:a:t=Tromba.	!	!
1AA]	2G#X/	(>2e/	(<2d\	p
.	2Gn/	8bn/L	2c#X\)	.
.	.	8a/	.	.
.	.	8g/	.	.
.	.	8e/J)	.	.
!!LO:LB:g=original
*v	*v	*	*	*
*	*v	*v	*
=332||	=332||	=332||
*k[f#c#]	*k[f#c#]	*
*M4/4	*M4/4	*
*met(c)	*met(c)	*
!LO:TX:a:t=Cello.	!LO:TX:a:B:t=Tempo I.o	!
!	!	!LO:DY:b:rj
8DD\L	4d 4F#X</	p
8AA\	.	.
8F#\	4r	.
8AA\J	.	.
4DD\	4r	.
!	!LO:TX:b:Bi:t=m.d.	!
4r	4d< 4A< 4F#</	.
=333	=333	=333
2r	4f# 4d 4A<'</	.
.	4a 4f# 4d'</	.
4r	4dd 4a 4f#'</	.
4AA/	4r	.
=334	=334	=334
8DD\L	2r	.
8AA\	.	.
8F#\	.	.
8AA\J	.	.
4F#\	4r	.
4rGG	4d 4A< 4F#</	.
=335	=335	=335
2r	4f# 4d 4A<'</	.
.	4a 4f# 4d'</	.
4r	4dd 4a 4f#'</	.
4AA\	4r	.
=336	=336	=336
8DD/L	2r	.
8AA/	.	.
8F#/	.	.
8AA/J	.	.
!	!LO:TX:b:t=Cor.	!
!	!LO:TX:a:t=Ob.	!
4F#\	(>2ff# 2f#\	p
4AA/	.	.
=337	=337	=337
!	!LO:TX:b:Bi:t=espressivo	!
4F# 4D\	2ee#X 2e#X\	.
4AA/	.	.
4F# 4D\	2ff# 2f#\	.
4AA/	.	.
=338	=338	=338
8DD/L	1bb 1b)	.
8AA/	.	.
8F#/	.	.
8AA/J	.	.
4F#\	.	.
4AA/	.	.
=339	=339	=339
4F# 4D\	[>1aa [<1a^<	.
4AA/	.	.
4F# 4D\	.	.
4AA/	.	.
!!LO:LB:g=original
=340	=340	=340
8CC#/L	(>2aa] 2a\]	.
8AA/	.	.
8E/	.	.
8AA/J	.	.
4E\	4gg 4g\	.
4AA/	4ff# 4f#\	.
=341	=341	=341
4G 4E\	2ee 2e\	.
4AA/	.	.
4G 4E\	4ff# 4f#\	.
4AA/	4ee 4e\)	.
=342	=342	=342
8DD/L	(>1dd &(<1d	.
8AA/	.	.
8F#/	.	.
8AA/J	.	.
4F#\	.	.
4AA/	.	.
=343	=343	=343
4F# 4D\	2a) 2A/&)	.
4AA/	.	.
4F# 4D\	2r	.
4AA/	.	.
=344	=344	=344
8DD/L	2r	.
8AA/	.	.
8F#/	.	.
8AA/J	.	.
4F#\	(>2ff# 2f#\	.
4AA/	.	.
=345	=345	=345
4F# 4D\	2ee#X 2e#X\	.
4AA/	.	.
4F# 4D\	2ff# 2f#\	.
4AA/	.	.
=346	=346	=346
8DD/L	1bb 1b^<)	.
8AA/	.	.
8F#/	.	.
8AA/J	.	.
4F#\	.	.
4AA/	.	.
=347	=347	=347
!	!LO:TX:a:t=P:problem:w źródle brak początku ligatury	!
4F# 4D\	[>1aa [<1a^<	.
4AA/	.	.
4F# 4D\	.	.
4AA/	.	.
!!LO:LB:g=original
=348	=348	=348
8CC#/L	(>2aa] 2a\]	.
8AA/	.	.
8E/	.	.
8AA/J	.	.
4E\	4gg 4g\	.
4AA/	4ff# 4f#\	.
=349	=349	=349
4G 4E\	2ee 2e\	.
4AA/	.	.
4G 4E\	4ff# 4f#\	.
4AA/	4ee 4e\)	.
=350	=350	=350
8DD/L	[>1dd [<1d	.
8AA/	.	.
8F#/	.	.
8AA/J	.	.
4F#\	.	.
4AA/	.	.
.	16qqff#LL 16qqf#/	.
.	16qqeeJJ 16qqe/	.
=351	=351	=351
4F# 4D\	2dd] 2d/]	.
4AA/	.	.
4F# 4D\	2r	.
4DD/	.	.
=352	=352	=352
8BBB/L	2r	.
8GG#X/	.	.
8D/	.	.
8GG#/J	.	.
!	!LO:TX:a:t=Flau.	!
!	!LO:TX:b:t=Clar.	!
4D\	(>2ee 2e/	.
4EE/	.	.
=353	=353	=353
4D 4GG#X/	2dd#X 2d#X/	.
4EE/	.	.
4D 4GG#/	2ee 2e/)	.
4EE/	.	.
=354	=354	=354
8AAA/L	1ff# 1f#^<	.
8EE/	.	.
8C#/	.	.
8EE/J	.	.
4C#/	.	.
4CC#/	.	.
=355	=355	=355
4C# 4AA/	[>1ee [<1e^<	.
4EE/	.	.
4C# 4AA/	.	.
4EE/	.	.
!!LO:PB:g=original
=356	=356	=356
8GGG#X/L	(>2ee] 2e/]	<
8EE/	.	.
8BB/	.	.
8EE/J	.	.
4BB/	4dd#X 4d#X/	.
4EE/	4ee 4e/	.
=357	=357	=357
4D 4BB/	4ff# 4f#\	.
4EE/	4gg#X 4g#X\	.
4D 4BB/	4aa 4a\	.
4EE/	4bb 4b\)	[[
=358	=358	=358
8AAA/L	(>1ccc# 1cc#	>
8EE/	.	.
8C#/	.	.
8EE/J	.	.
4C#/	.	.
4EE/	.	.
=359	=359	=359
4C# 4AA/	2aa 2a\)	]
4EE/	.	.
4C# 4AA/	2r	.
4EE/	.	.
=360	=360	=360
*	*8va	*
!	!LO:TX:b:Bi:t=grand espressione	!
8DD#X/L	(>1aaa 1aa	.
8Cn/	.	.
8F#/	.	.
8C/J	.	.
4F#\	.	.
4D#X\	.	.
=361	=361	=361
4cn 4A 4F#\	2ggg#X 2gg#X\	.
4D#X\	.	.
4c 4A 4F#\	2fff# 2ff#\	.
4DD#X/	.	.
=362	=362	=362
8EE/L	1fff# 1ff#	.
8C#X/	.	.
8E/	.	.
8C#/J	.	.
4E\	.	.
4E\	.	.
=363	=363	=363
4c# 4A\	2eee 2ee/)	.
4E\	.	.
4c# 4A\	2r	.
4E\	.	.
!!LO:LB:g=original
=364	=364	=364
!	!LO:TX:a:t=P:problem:diminuendolike accent	!
8EE/L	(>4fff# 4ff#^<\	.
8BB/	.	.
8G#X/	4eee 4ee\)	.
8BB/J	.	.
!	!LO:TX:a:t=P:problem:diminuendolike accent	!
4G#\	(>4fff# 4ff#^<\	.
4E\	4eee 4ee\)	.
=365	=365	=365
!	!LO:TX:a:t=P:problem:diminuendolike accent	!
4d 4B\	(>4fff# 4ff#^<\	.
4E\	4eee 4ee/	.
!	!LO:TX:a:t=P:problem:diminuendolike accent	!
4d 4B\	4ddd 4dd^</	.
4E\	4bb 4b/)	.
=366	=366	=366
8AA\L	1aa 1a	.
8E\	.	.
8c#\	.	.
8E\J	.	.
4c#\	.	.
4E\	.	.
.	(<16qqccc#LL 16qqcc#/	.
.	16qqbbJJ 16qqb/	.
=367	=367	=367
4c# 4A\	2aa 2a/)	.
4E\	.	.
4c# 4An 4G\	2r	.
4E\	.	.
=368	=368	=368
8D\L	2r	.
8A\	.	.
8f#\	.	.
8A\J	.	.
4f#\	2fff# 2ff#\	.
4A\	.	.
=369	=369	=369
4f# 4d\	2eee#X 2ee#X\	.
4A\	.	.
4f# 4d\	2fff# 2ff#\	.
4A\	.	.
=370	=370	=370
8D\L	1bbb 1bb	.
8A\	.	.
8f#\	.	.
8A\J	.	.
4f#\	.	.
4A\	.	.
=371	=371	=371
4f# 4d\	[>1aaa [<1aa	.
4A\	.	.
4f# 4d\	.	.
4A\	.	.
!!LO:LB:g=original
=372	=372	=372
8C#\L	(>2aaa] 2aa\]	.
8A\	.	.
8e\	.	.
8A\J	.	.
4e\	4ggg 4gg\	.
4A\	4fff# 4ff#\	.
=373	=373	=373
4g 4e\	2eee 2ee\	.
4A\	.	.
4g 4e\	4fff# 4ff#\	.
4A\	4eee 4ee\)	.
=374	=374	=374
8D\L	1ddd 1dd	.
8A\	.	.
8f#\	.	.
8A\J	.	.
4D\	.	.
4r	.	.
=375	=375	=375
!	!LO:TX:b:Bi:t=cres_:ext=ud:problem:dynamics with extention lines	!
!	!	!LO:HP:b:Bi:t=cres
8Cn\L	1dddd 1ddd	<
8F#\	.	.
8d\	.	.
8F#\J	.	.
4C/	.	.
4r	.	.
=376	=376	=376
8BB\L	[>1dddd [<1ddd	.
8G\	.	.
8d\	.	.
8G\J	.	.
4BB/	.	.
4r	.	.
=377	=377	=377
8BB-X\L	2dddd] 2ddd\]	.
8Fn\	.	.
8d\	.	.
8F\J	.	.
4BB-/	2ggg#X 2gg#X\	.
4r	.	[[
=378	=378	=378
8AA\L	[1aaa [1aa	f
8F#\	.	>
8A\	.	.
8d\J	.	.
4f#\	.	.
*clefG2	*	*
4a 4f# 4d/	.	.
=379	=379	=379
4dd 4a 4f#/	2aaa] 2aa\]	]
4r	.	.
*	*X8va	*
!	!	!LO:DY:b:rj
2r	(>4dd 4d/	p
.	4ee 4e/	.
!!LO:LB:g=original
=380	=380	=380
*clefF4	*	*
2F# 2D 2AA/	[>1ff# [<1f#)	.
2r	.	.
=381	=381	=381
2G 2C# 2AA\	(>4ff#] 4f#\]	.
.	4gg 4g\	.
2r	4ee 4e\	.
.	4ff# 4f#\)	.
=382	=382	=382
2F# 2D\	4dd 4d/	p
.	8d'</L	.
.	8d'</J	.
2r	4d'</	.
.	8c#'</L	.
.	8c#'</J	.
=383	=383	=383
1D 1DD	4c#'</	.
.	8cn'</L	.
.	8c'</J	.
.	4c'</	.
.	8B'</L	.
.	8B'</J	.
=384	=384	=384
1D 1DD	4B/	.
.	8B-X/L	.
.	8B-/J	.
.	4B-/	.
.	8A/L	.
.	8A/J	.
=385	=385	=385
1D 1DD	4A/	.
.	8G#X/L	.
.	8G#/J	.
.	4G#/	.
.	8Gn/L	.
.	8G/J	.
=386	=386	=386
2D 2DD/	4F#/	.
.	8d/L	.
.	8d/J	.
2D 2DD/	4d/	.
.	8eL 8c#/	.
.	8eJ 8c#/	.
!!LO:LB:g=original
=387	=387	=387
!	!LO:TX:b:Bi:t=poco_cres_cendo_e_sempre_piu_cres_al_:ext=ud:problem:dynamics with extention lines	!
!	!	!LO:HP:b:Bi:t=poco cres_cendo e sempre piu cres al
2D 2DD/	4e 4c#/	<
.	8f#L 8cn/	.
.	8f#J 8c/	.
2D 2DD/	4f# 4c/	.
.	8gL 8B/	.
.	8gJ 8B/	.
=388	=388	=388
2D 2DD/	4g 4B/	.
.	8gL 8B-X/	.
.	8gJ 8B-/	.
2D 2DD/	4g 4B-/	.
.	8f#L 8A/	.
.	8f#J 8A/	.
=389	=389	=389
2D 2DD/	4f# 4A/	.
.	8fnL 8G#X/	.
.	8fJ 8G#/	.
2D 2DD/	4f 4G#/	.
.	8eL 8Gn/	.
.	8eJ 8G/	.
=390	=390	=390
4D 4DD/	4d 4F#/	.
4D 4DD/	8ddL 8f#/	.
.	8ddJ 8f#/	.
4D 4DD/	4dd 4f#/	.
4D 4DD/	8cc#L 8g/	.
.	8cc#J 8g/	.
=391	=391	=391
4D 4DD/	4cc# 4g/	.
4D 4DD/	8ccnL 8a/	.
.	8ccJ 8a/	.
4D 4DD/	4cc 4a/	.
4D 4DD/	8bL 8g/	.
.	8bJ 8g/	.
=392	=392	=392
4D 4DD/	4b 4g/	.
4D 4DD/	8b-XL 8g/	.
.	8b-J 8g/	.
4D 4DD/	4b- 4g/	.
4D 4DD/	8aL 8f#/	.
.	8aJ 8f#/	.
!!LO:LB:g=original
=393	=393	=393
4D 4DD/	4a 4f#/	.
4D 4DD/	8bL 8g#X 8fn/	.
.	8bJ 8g# 8f/	.
4D 4DD/	4b 4g# 4f/	.
4D 4DD/	8cc#L 8gn 8e/	.
.	8cc#J 8g 8e/	.
=394	=394	=394
*tremolo	*	*
8DD/L	4dd 4f# 4d/	.
8D/	.	.
8DD/	8dddL 8dd\	.
8D/J	8dddJ 8dd\	.
8DD/L	4ddd 4dd\	.
8D/	.	.
8DD/	8ccc#XL 8ee\	.
8D/J	8ccc#J 8ee\	.
=395	=395	=395
8DD/L	4ccc#X 4ee\	.
8D/	.	.
8DD/	8cccnL 8ff#\	.
8D/J	8cccJ 8ff#\	.
8DD/L	4ccc 4ff#\	.
8D/	.	.
8DD/	8bbL 8gg\	.
8D/J	8bbJ 8gg\	.
=396	=396	=396
8DD/L	4bb 4gg\	.
8D/	.	.
8DD/	8bb-XL 8gg\	.
8D/J	8bb-J 8gg\	.
8DD/L	4bb- 4gg\	.
8D/	.	.
8DD/	8aaL 8ff#\	.
8D/J	8aaJ 8ff#\	.
=397	=397	=397
8DD/L	4aa 4ff#\	.
8D/	.	.
8DD/	8bbL 8gg#X 8ffn\	.
8D/J	8bbJ 8gg# 8ff\	.
8DD/L	4bb 4gg# 4ff\	.
8D/	.	.
8DD/	8ccc#L 8ggn 8ee\	.
8D/J	8ccc#J 8gg 8ee\	[[
*Xtremolo	*	*
=398	=398	=398
4D 4DD/	4ddd 4ff# 4dd\	ff
8dL 8A 8F# 8D\	4r	.
8dJ 8A 8F# 8D\	.	.
4d 4A 4F# 4D\	4r	.
4r	8dddL 8aa 8ff# 8dd\	.
.	8dddJ 8aa 8ff# 8dd\	.
!!LO:PB:g=original
=399	=399	=399
4r	4ddd 4aa 4ff# 4dd\	.
8dL 8A 8F# 8D\	4r	.
8dJ 8A 8F# 8D\	.	.
4d 4A 4F# 4D\	4r	.
4r	8dddL 8dd\	.
.	8eeeJ 8ee\	.
=400	=400	=400
4d 4A 4F# 4D\	4.fff# 4.ff#\	.
4r	.	.
.	8fff#\	.
4d 4A 4F# 4D\	8ggg\L	.
.	8fff#\	.
4r	8eee\	.
.	8ddd\J	.
=401	=401	=401
4A 4E 4C# 4AA\	4eee'>\	.
4A 4E 4C# 4AA\	4aaa 4eee 4ccc# 4aa'>\	sf
2r	2r	.
=402	=402	=402
2.F# 2.C# 2.AA#X 2.FF#/	2.fff# 2.ccc# 2.aa#X 2.ff#^<\	.
4F# 4C# 4AA# 4FF#/	4eee 4ccc# 4aa# 4ff#\	.
=403	=403	=403
2.B 2.F# 2.D 2.BB\	2.ddd 2.bb 2.ff#^<\	.
4G 4E 4BB 4GG/	4eee\	.
=404	=404	=404
4F# 4D 4AA/	4aa\	.
4F# 4D 4AA/	4aa\	.
4G 4C# 4AA/	4aa\	.
4G 4C# 4AA/	(>8bb\L	.
.	8ccc#\J)	.
=405	=405	=405
4F# 4D\	(>8ddd\L	.
.	8eee\	.
4r	8fff#\	.
.	8ggg\J	.
4r	4aaa\)	.
4d 4D\	4r	.
=406	=406	=406
2.F# 2.C# 2.AA#X 2.FF#/	2.fff# 2.ccc# 2.aa#X 2.ff#\	fz
4F# 4C# 4AA# 4FF#/	4eee 4ccc# 4aa# 4ff#\	.
!!LO:LB:g=original
=407	=407	=407
2.B 2.F# 2.D 2.BB\	2.ddd 2.bb 2.ff#\	.
4G 4E 4BB 4GG/	4eee\	.
=408	=408	=408
4F# 4D 4AA/	4aa\	.
4F# 4D 4AA/	4aa\	.
4G 4C# 4AA\	4aa\	.
4G 4C# 4AA\	(>8bb\L	.
.	8ccc#\J)	.
=409	=409	=409
4F# 4D\	4ddd'>\	.
4D\	4fff# 4aa'>\	.
4DD/	4ddd 4ff#'>\	.
4r	4r	.
=410	=410	=410
4E 4EE/	8ee\L	p
.	8ff#\	.
4d 4G#X 4E\	8ee\	.
.	8ff#\J	.
4d 4G# 4E\	8ee\L	.
.	8ff#\	.
4d 4G# 4E\	8ee\	.
.	8ff#\J	.
=411	=411	=411
4A 4AA\	4ee'>\	.
4c# 4A 4E\	4aa'>\	.
4c# 4A 4E\	4ccc#'>\	.
4c# 4A 4E\	4r	.
=412	=412	=412
*	*8va	*
4E 4EE/	8eee\L	p
.	8fff#\	.
4d 4G#X 4E\	8eee\	.
.	8fff#\J	.
4d 4G# 4E\	8eee\L	.
.	8fff#\	.
4d 4G# 4E\	8eee\	.
.	8fff#\J	.
=413	=413	=413
4A 4AA/	4eee'>\	.
4c# 4A 4E\	4aaa'>\	.
4c# 4A 4E\	4cccc#'>\	.
*	*X8va	*
4c# 4A 4E\	4r	.
!!LO:LB:g=original
=414	=414	=414
!	!LO:TX:b:Bi:t=cres_:ext=ud:problem:dynamics with extention lines	!
!	!	!LO:HP:b:Bi:t=cres
4F# 4FF#/	8ff#\L	<
.	8gg\	.
4e 4c# 4A#X 4F#\	8ff#\	.
.	8gg\J	.
4e 4c# 4A# 4F#\	8ff#\L	.
.	8gg\	.
4e 4c# 4A# 4F#\	8ff#\	.
.	8gg\J	.
=415	=415	=415
4B 4BB\	4ff#'>\	.
4d 4B 4F#\	4bb'>\	.
4d 4B 4F#\	4ddd'>\	.
4d 4B 4F#\	4r	.
=416	=416	=416
*	*8va	*
4F# 4FF#/	8fff#\L	.
.	8ggg\	.
4e 4c# 4A#X 4F#\	8fff#\	.
.	8ggg\J	.
4e 4c# 4A# 4F#\	8fff#\L	.
.	8ggg\	.
4e 4c# 4A# 4F#\	8fff#\	.
.	8ggg\J	.
=417	=417	=417
4B 4BB\	4fff#'>\	.
4d 4B 4F#\	4bbb'>\	.
4d 4B 4F#\	4dddd'>\	.
*	*X8va	*
4d 4B 4F#\	4r	[
=418	=418	=418
4A 4E 4C# 4AA\	2.ggg 2.eee 2.ccc# 2.aa\	f
4A 4E 4C# 4AA\	.	.
4A 4E 4C# 4AA\	.	.
4r	(>8fff#\L	.
.	8eee\J)	.
=419	=419	=419
4D 4AA 4FF# 4DD/	2.ddd^<\	.
4D 4AA 4FF# 4DD/	.	.
4D 4AA 4FF# 4DD/	.	.
4r	(>8ccc#\L	.
.	8bb\J)	.
=420	=420	=420
4G 4E 4C# 4AA\	8aa\L	.
.	8bb\	.
4r	8aa\	.
.	8bb\J	.
4G 4E 4C# 4AA\	8aa\L	.
.	8bb\	.
4r	8aa\	.
.	8bb\J	.
!!LO:LB:g=original
=421	=421	=421
4F# 4D\	4aa'>\	.
4A 4F# 4D\	4ddd'>\	.
4A 4F# 4D\	4fff#'>\	.
4r	4r	.
=422	=422	=422
4A 4E 4C# 4AA\	2.aaa 2.eee 2.ccc# 2.aa^<\	.
4A 4E 4C# 4AA\	.	.
4A 4E 4C# 4AA\	.	.
4r	(>8fff#\L	.
.	8eee\J)	.
=423	=423	=423
4D 4AA 4FF# 4DD/	2.ddd^<\	.
4D 4AA 4FF# 4DD/	.	.
4D 4AA 4FF# 4DD/	.	.
4r	(>8ccc#\L	.
.	8bb\J)	.
=424	=424	=424
4G 4E 4C# 4AA\	8aa\L	.
.	8bb\	.
4r	8aa\	.
.	8bb\J	.
4G 4E 4C# 4AA\	8aa\L	.
.	8gg\	.
4r	8ee\	.
.	8ff#\J	.
=425	=425	=425
4F# 4D\	4dd'>\	.
4D\	4ff# 4a'>\	.
4DD/	4dd 4f#'</	.
4r	4r	.
=426	=426	=426
4A 4E 4C# 4AA\	2.ggg 2.eee 2.ccc# 2.aa^<\	<
4A 4E 4C# 4AA\	.	.
4A 4E 4C# 4AA\	.	.
4r	(>8fff#\L	.
.	8eee\J)	.
=427	=427	=427
4D 4AA 4FF# 4DD/	2.ddd^<\	.
4D 4AA 4FF# 4DD/	.	.
4D 4AA 4FF# 4DD/	.	.
4r	(>8ccc#\L	.
.	8bb\J)	[[
!!LO:LB:g=original
=428	=428	=428
4G 4E 4C# 4AA\	8aa\L	.
.	8bb\	.
4r	8aa\	.
.	8bb\J	.
4G 4E 4C# 4AA\	8aa\L	.
.	8bb\	.
4r	8aa\	.
.	8bb\J	.
=429	=429	=429
4D 4AA 4FF# 4DD/	4aa\	.
4D 4AA 4FF# 4DD/	4ddd\	.
4D 4AA 4FF# 4DD/	4fff#\	.
4r	4r	.
=430	=430	=430
(>2AA 2AAA/	2.ggg 2.eee 2.ccc# 2.gg\	.
2AA#X 2AAA#X/	.	.
.	(>8fff#\L	.
.	8eee\J)	.
=431	=431	=431
4BB 4BBB/)	2.ddd\	.
4r	.	.
(>2E#X [<2D &(<2GG#X^>/	.	.
.	(>8ccc#\L	.
.	8bb\J)	.
=432	=432	=432
4F#) 4D] 4AA/&)	8aa\L	.
.	8bb\	.
4r	8aa\	.
.	8bb\J	.
4Gn 4C# 4AA/	8aa\L	.
.	8gg\	.
4r	8ee\	.
.	8gg\J	.
=433	=433	=433
4A 4F# 4D\	4dd\	.
4r	4r	.
(>2E#X [<2D &(<2GG#X^>/	4ddd\	.
.	(>8ccc#\L	.
.	8bb\J)	.
!!LO:LB:g=original
=434	=434	=434
4F#) 4D] 4AA/&)	8aa\L	.
.	8bb\	.
4r	8aa\	.
.	8bb\J	.
4Gn 4C# 4AA\	8aa\L	.
.	8gg\	.
4r	8ee\	.
.	8ff#\J	.
=435	=435	=435
4F# 4D\	4dd\	.
4r	4r	.
(>2E#X [<2D &(<2GG#X^>/	4ddd\	.
.	8ccc#\L	.
.	8bb\J	.
=436	=436	=436
4F#) 4D] 4AA/&)	(>8aa\L	.
.	8bb\	.
4r	8aa\	.
.	8bb\J	.
4G 4E 4C# 4AA\	8aa\L	.
.	8bb\	.
4r	8aa\	.
.	8gg\J	.
=437	=437	=437
4F# 4D\	8ff#\L	.
.	8gg\	.
4r	8ff#\	.
.	8gg\J	.
4F# 4C# 4AA#X/	8ff#\L	.
.	8gg\	.
4r	8ff#\	.
.	8ee\J	.
=438	=438	=438
4F# 4D 4BB\	8dd\L	.
.	8ee\	.
4r	8dd\	.
.	8ee\J	.
4D 4AA 4FF#/	8dd\L	.
.	8ee\	.
4r	8dd\	.
.	8ccn\J)	.
!!LO:PB:g=original
=439	=439	=439
4D 4BB 4GG/	(>8b\L	.
.	8ccn\	.
4r	8b\	.
.	8cc\J	.
4D#X 4BB 4DD#X/	8b\L	.
.	8cc\	.
4r	8b\	.
.	8a\J	.
=440	=440	=440
4E 4BB 4EE/	8g/L	.
.	8a/	.
8r	8g/	.
8BB 8FF#/	8f#/J	.
4BB 4GG/	8e/L	.
.	8f#/	.
8r	8e/	.
8BB 8AA/	8d#X/J)	.
=441	=441	=441
4BB 4GG/	(>8e/L	.
.	8d#X/	.
4r	8e/	.
.	8f#/J	.
8GG/L	8g/L	.
8FF#/	8f#/	.
8GG/	8g/	.
8AA/J	8a/J	.
=442	=442	=442
8BB/L	8b\L	.
8AA#X/	8a#X\	.
8BB/	8b\	.
8D#X/J	8dd#X\J	.
8E\L	8ee\L	.
8D#\	8dd#\	.
8E\	8ee\	.
8F#\J	8ff#\J	.
=443	=443	=443
8G\L	8gg\L	.
8F#\	8ff#\	.
8G\	8gg\	.
8A\J	8aa\J	.
8B\L	8bb\L	.
8A#X\	8aa#X\	.
8B\	8bb\	.
8c#\J	8ccc#\J)	.
!!LO:LB:g=original
=444	=444	=444
8d\L	8ddd\L	.
8c#\	8ccc#\	.
8d\	8ddd\	.
8c#\J	8ccc#\J	.
8d\L	8ddd\L	.
8c#\	8ccc#\	.
8d\	8ddd\	.
8B\J	8bb\J	.
=445	=445	=445
4A\	4aa\	.
(>8AA\L	4r	.
8A\J)	.	.
*tremolo	*tremolo	*
(>8AA\L	(>8gg#XL 8ffn\	.
8A\	8bb\	.
8AA\	8gg# 8ff\	.
8A\J)	8bb\J)	.
=446	=446	=446
(>8AA\L	(>8ggnL 8ee\	.
8A\	8ccc#\	.
8AA\	8gg 8ee\	.
8A\J)	8ccc#\J)	.
(>8AA\L	(>8ff#L 8dd\	.
8A\	8ddd\	.
8AA\	8ff# 8dd\	.
8A\J)	8ddd\J)	.
=447	=447	=447
(>8AA\L	(>8dddL 8bb 8gg#X\	.
8A\	8eee\	.
8AA\	8ddd 8bb 8gg#\	.
8A\J)	8eee\J)	.
(>8AA\L	(>8dddL 8bb 8gg#\	.
8A\	8eee\	.
8AA\	8ddd 8bb 8gg#\	.
8A\J)	8eee\J)	.
=448	=448	=448
(>8AA\L	(>8ccc#XL 8ggn\	.
8A\	8aaa\	.
8AA\	8ccc# 8gg\	.
8A\J)	8aaa\J)	.
(>8AA\L	(>8ccc#L 8gg\	.
8A\	8aaa\	.
8AA\	8ccc# 8gg\	.
8A\J)	8aaa\J)	.
*Xtremolo	*Xtremolo	*
=449	=449	=449
!!!OMD: Più presto.
*	*^	*
4DD/	4ddd 4ff#\	2ryy	ff
4D\	4r	.	.
2DD/	(>&(<4ddd/	(<2gg#X 2ee#X\	.
.	8ccc#/L	.	.
.	8bb/J	.	.
!!LO:LB:g=original
=450	=450	=450	=450
4DD/	4aa/)&)	4ff#\)	.
4d 4D\	4r	4ryy	.
2D 2DD^>/	(>&(<4ddd/	(<2gg#X 2ee#X\	.
.	8ccc#/L	.	.
.	8bb/J	.	.
=451	=451	=451	=451
4D 4DD/	4aa/)&)	4ff#\)	.
4d 4D\	4r	4ryy	.
2D 2DD/	(>&(<4ddd/	(<2gg#X 2ee#X\	.
.	8ccc#/L	.	.
.	8bb/J	.	.
=452	=452	=452	=452
4D 4DD/	(>4aa/)&)	4ff#\)	.
4r	8aa\L	2.ryy	.
.	8bb\J	.	.
2r	8ccc#\L	.	.
.	8ddd\	.	.
.	8eee\	.	.
.	8fff#\J)	.	.
*	*v	*v	*
=453	=453	=453
*tremolo	*	*
8EL 8C# 8AA\	2.ggg\	ff
8G\	.	.
8E 8C# 8AA\	.	.
8G\J	.	.
8EL 8C# 8AA\	.	.
8G\	.	.
8E 8C# 8AA\	(>8ddd#X\L	.
8G\J	8eee\J	.
=454	=454	=454
8EL 8C# 8AA\	4ggg\)	.
8G\	.	.
8E 8C# 8AA\	(>8bb#X\L	.
8G\J	8ccc#\J	.
8EL 8C# 8AA\	4eee\)	.
8G\	.	.
8E 8C# 8AA\	(>8gg#X\L	.
8G\J	8aa\J	.
*Xtremolo	*	*
=455	=455	=455
4G 4E 4C# 4AA\	4ccc#\)	.
4r	(>8dd#X\L	.
.	8ee\J	.
4G 4E 4C# 4AA\	4gg\)	.
4r	(>8b#X\L	.
.	8cc#\J	.
!!LO:LB:g=original
=456	=456	=456
4G 4E 4C# 4AA\	4ee\)	.
(>8G#X\L	(>8gg#X\L	.
8A\J	8aa\J	.
8A#X\L	8aa#X\L	.
8B\	8bb\	.
8cn\	8cccn\	.
8c#X\J)	8ccc#X\J)	.
=457	=457	=457
*	*^	*
4d\	4ddd\	2ryy	.
4d 4D\	4r	.	ff
2D 2DD^>/	(>&(<4ddd/	(<2gg#X 2ee#X\	.
.	8ccc#/L	.	.
.	8bb/J	.	.
=458	=458	=458	=458
4D 4DD/	4aa/)&)	4ff#\)	.
4d 4D\	4r	4ryy	.
2D 2DD^>/	(>&(<4ddd/	(<2gg#X 2ee#X\	.
.	8ccc#/L	.	.
.	8bb/J	.	.
=459	=459	=459	=459
4D 4DD/	4aa/)&)	4ff#\)	.
4d 4D\	4r	4ryy	.
2D 2DD/	(>&(<4ddd/	(<2gg#X 2ee#X\	.
.	8ccc#/L	.	.
.	8bb/J	.	.
=460	=460	=460	=460
4D 4DD/	4aa/)&)	4ff#\)	.
4r	(>8aa\L	2.ryy	.
.	8bb\J	.	.
2r	8ccc#\L	.	.
.	8ddd\	.	.
.	8eee\	.	.
.	8fff#\J	.	.
*	*v	*v	*
=461	=461	=461
*tremolo	*	*
(>8EL 8C# 8AA\	2.ggg\)	.
8G\	.	.
8E 8C# 8AA\	.	.
8G\J)	.	.
(>8EL 8C# 8AA\	.	.
8G\	.	.
8E 8C# 8AA\	(>8ddd#X\L	.
8G\J)	8eee\J	.
!!LO:LB:g=original
=462	=462	=462
8EL 8C# 8AA\	4ggg\)	.
8G\	.	.
8E 8C# 8AA\	(>8bb#X\L	.
8G\J	8ccc#\J	.
8EL 8C# 8AA\	4eee\)	.
8G\	.	.
8E 8C# 8AA\	(>8gg#X\L	.
8G\J	8aa\J	.
*Xtremolo	*	*
=463	=463	=463
4G 4E 4C# 4AA\	4ccc#\)	.
4r	(>8dd#X\L	.
.	8ee\J	.
4G 4E 4C# 4AA\	4gg\)	.
4r	(>8b#X\L	.
.	8cc#\J	.
=464	=464	=464
4G 4E 4C# 4AA\	4ee\)	.
(>8G#X\L	(>8gg#X\L	.
8A\J	8aa\J	.
8A#X\L	8aa#X\L	.
8B\	8bb\	.
8cn\	8cccn\	.
8c#X\J	8ccc#X\J	.
=465	=465	=465
4d\)	4ddd\)	<
8CC#/L	8c#/L	.
8DD/J	8d/J	.
8EE/L	8e/L	.
8FF#/	8f#/	.
8GG/	8g/	.
8AA/J	8a/J	[[
=466	=466	=466
1BB-X	1b-X^<	.
=467	=467	=467
8EE-X/L	8e-X/L	<
8EE-/	8e-/	.
8DD/	8d/	.
8EE-/J	8e-/J	.
8FFn/L	8fn/L	.
8GG/	8g/	.
8AA-X/	8a-X/	.
8BB-X/J	8b-X/J	[[
=468	=468	=468
1Cn	1ccn^<	.
!!LO:LB:g=original
=469	=469	=469
8FFn/L	8fn/L	<
8FF/	8f/	.
8EE/	8e/	.
8FF/J	8f/J	.
8GG/L	8g/L	.
8AAn/	8a-X/	.
8BB-X/	8b-X/	.
8Cn/J	8ccn/J	[[
=470	=470	=470
1D	1dd^<	.
=471	=471	=471
2D 2DD/	2ddd 2dd\	.
2E-X 2EE-X/	2eee-X 2ee-X\	.
=472	=472	=472
4Fn 4FFn/	4fffn 4ffn\	.
4F#X 4FF#X/	4fff#X 4ff#X\	.
4G 4GG/	4ggg 4gg\	.
4G#X 4GG#X/	4ggg#X 4gg#X\	.
=473	=473	=473
2F# 2D 2AA/	2aaa 2aa\	ff <
4F# 4D 4AA/	4fff# 4ff#'>\	.
4F# 4D 4AA/	4ddd 4dd'>\	.
=474	=474	=474
4F# 4D 4AA/	4aa 4a'>\	.
4F# 4D 4AA/	4ff# 4f#'>\	.
4F# 4D 4AA/	4dd 4d'</	.
4F# 4D 4AA/	4a 4A'</	[
=475	=475	=475
2G 2E 2C# 2AA\	2ggg 2gg\	ff
4G 4E 4C# 4AA\	4eee 4ee'>\	.
4G 4E 4C# 4AA\	4ccc# 4cc#'>\	.
=476	=476	=476
4G 4E 4C# 4AA\	4aa 4a'>\	.
4G 4E 4C# 4AA\	4gg 4g'>\	.
4G 4E 4C# 4AA\	4ee 4e'</	.
4G 4E 4C# 4AA\	4cc# 4c#'</	.
=477	=477	=477
4F# 4D\	4dd 4d/	.
*	*8va	*
4r	8aaa\L	.
.	8aaa\J	.
2r	8aaa\L	.
.	8fff#\	.
.	8ddd\	.
.	8aa\J	.
*	*X8va	*
!!LO:LB:g=original
=478!|:	=478!|:	=478!|:
*>B	*>B	*
8F#\L	8ff#\L	.
8A\	8aa\	.
8D\	8dd\	.
8F#\J	8ff#\J	.
4AA/	4a/	.
4AA 4AAA/	4aa 4ee 4cc# 4a\	sf
=479	=479	=479
4D 4DD/	4ff# 4dd 4a\	sf
*	*8va	*
4r	8aaa\L	.
.	8aaa\J	.
2r	8aaa\L	.
.	8fff#\	.
.	8ddd\	.
.	8aa\J	.
*	*X8va	*
=480	=480	=480
8F#\L	8ff#\L	.
8A\	8aa\	.
8D\	8dd\	.
8F#\J	8ff#\J	.
4BB/	4b\	.
4BB 4BBB/	4bb 4ff# 4dd#X 4b\	sf
=481	=481	=481
4E 4EE/	4gg 4ee 4b\	sf
*	*8va	*
4r	8bbb\L	.
.	8bbb\J	.
2r	8bbb\L	.
.	8ggg\	.
.	8eee\	.
.	8bb\J	.
*	*X8va	*
=482	=482	=482
8G\L	8gg\L	.
8B\	8bb\	.
8E\	8ee\	.
8G\J	8gg\J	.
4BB/	4b\	.
4BB 4BBB/	4bb 4ff# 4dd#X 4b\	sf
=483	=483	=483
4E 4EE/	4gg 4ee 4b\	sf
*	*8va	*
4r	8bbb\L	.
.	8bbb\J	.
2r	8bbb\L	.
.	8ggg\	.
.	8eee\	.
.	8bb\J	.
*	*X8va	*
!!LO:LB:g=original
=484	=484	=484
8G\L	8gg\L	.
8B\	8bb\	.
8E\	8ee\	.
8G\J	8gg\J	.
4C#X/	4cc#X\	.
4C# 4CC#/	4ccc# 4gg#X 4ee#X 4cc#\	sf
=485	=485	=485
4F# 4FF#/	4aa 4ff# 4cc#\	sf
4r	8ccc#\L	.
.	8ccc#\J	.
8c#\L	8ccc#\L	.
8A\	8aa\	.
8F#\	8ff#\	.
8C#\J	8cc#\J	.
=486	=486	=486
8A\L	8aa\L	.
8F#\	8ff#\	.
8C#\	8cc#\	.
8AA\J	8a\J	.
8FF#/L	8f#/L	.
8AA/	8a/	.
8CC#/	8c#/	.
8EE#X/J	8e#X/J	.
=487	=487	=487
4FF#/	4f#/	<
4F# 4FF#/	4fff# 4ff#\	.
4F# 4FF#/	4fff# 4ff#\	.
4F# 4FF#/	4fff# 4ff#\	.
=488	=488	=488
(<4F# 4FF#/	(>4fff# 4ff#\	.
4F# 4FF#/	4fff# 4ff#\	.
4G 4GG/	4ggg 4gg\	.
4G#X 4GG#X/)	4ggg#X 4gg#X\)	[
=489	=489	=489
2A 2AA\	2aaa 2aa\	ff
4G 4E 4C# 4AA\	(>8gg\L	.
.	8ggg\J)	.
4G 4E 4C# 4AA\	(>8ee\L	.
.	8eee\J)	.
!!LO:LB:g=original
=490	=490	=490
4G 4E 4C# 4AA\	(>8cc#\L	.
.	8ccc#\J)	.
4G 4E 4C# 4AA\	(>8a\L	.
.	8aa\J)	.
4G 4E 4C# 4AA\	(>8g\L	.
.	8gg\J)	.
4G 4E 4C# 4AA\	(>8e\L	.
.	8ee\J)	.
=491	=491	=491
4G 4E 4C# 4AA\	4cc# 4c#/	.
2G 2E 2C# 2AA\	2aa 2a^<\	.
4G 4E 4C# 4AA\	4aa 4a\	.
=492	=492	=492
4G 4E 4C# 4AA\	4bb-X 4b-X\	.
4G 4E 4C# 4AA\	4bbn 4bn\	.
4G 4E 4C# 4AA\	4cccn 4ccn\	.
4G 4E 4C# 4AA\	4ccc#X 4cc#X\	.
=493	=493	=493
*>B1	*>B1	*
4F# 4D\	4ddd 4dd\	.
*	*8va	*
4r	8aaa\L	.
.	8aaa\J	.
2r	8aaa\L	.
.	8fff#\	.
.	8ddd\	.
.	8aa\J	.
*	*X8va	*
=494||	=494||	=494||
*>B2	*>B2	*
4F# 4D\	4ddd 4dd\	.
4r	4r	.
*	*8va	*
.	(<16qqaa/LL	ff
.	16qqbb/	.
.	16qqccc#/JJ	.
2D 2AA 2FF# 2DD/	2ddd^<\)	.
=495	=495	=495
*>C	*>C	*
.	(<16qqaa/LL	.
.	16qqbb/	.
.	16qqccc#/JJ	.
2D 2AA 2FF# 2DD/	2ddd\)	.
.	(<16qqaa/LL	.
.	16qqbb/	.
.	16qqccc#/JJ	.
2D 2AA 2FF# 2DD/	2ddd\)	.
=496	=496	=496
.	(<16qqaa/LL	.
.	16qqbb/	.
.	16qqccc#/JJ	.
2D 2AA 2FF# 2DD/	2ddd\)	.
.	(<16qqddd/LL	.
.	16qqeee/JJ	.
2D 2AA 2FF# 2DD/	2fff#\)	.
=497	=497	=497
.	(<16qqddd/LL	.
.	16qqeee/JJ	.
2D 2AA 2FF# 2DD/	2fff#\)	.
.	(<16qqddd/LL	.
.	16qqeee/JJ	.
2D 2AA 2FF# 2DD/	2fff#\)	.
!!LO:LB:g=original
=498	=498	=498
.	(<16qqddd/LL	.
.	16qqeee/JJ	.
2D 2AA 2FF# 2DD/	2fff#\)	.
.	(<16qqfff#/LL	.
.	16qqggg/JJ	.
2D 2AA 2FF# 2DD/	2aaa 2fff# 2ddd\)	.
=499	=499	=499
.	(<16qqfff#/LL	.
.	16qqggg/JJ	.
2D 2AA 2FF# 2DD/	2aaa 2fff# 2ddd\)	.
.	(<16qqfff#/LL	.
.	16qqggg/JJ	.
2D 2AA 2FF# 2DD/	2aaa 2fff# 2ddd\)	.
=500	=500	=500
.	(<16qqfff#/LL	.
.	16qqggg/JJ	.
4D 4DD/	4aaa 4fff# 4ddd\)	.
4D 4DD/	4ggg#X 4eee#X 4ddd\	.
4D 4DD/	4aaa 4fff# 4ddd\	.
4D 4DD/	4ggg# 4eee# 4ddd\	.
=501	=501	=501
4D 4DD/	4aaa 4fff# 4ddd\	.
4D 4DD/	4ggg#X 4eee#X 4ddd\	.
4D 4DD/	4aaa 4fff# 4ddd\	.
4D 4DD/	4aaa 4fff# 4ddd\	.
=502	=502	=502
4GG#X 4GGG#X/	4bbb 4fffn 4ddd\	.
4r	4r	.
2r;>	2r;>	.
=503	=503	=503
1AA 1EE 1AAA	1aaa 1eee 1ccc# 1aa	.
=504	=504	=504
2AA 2AAA/	2aaa 2eee 2ccc# 2aa\	.
2AA 2AAA/	2aaa 2eee 2ccc# 2aa\	.
=505	=505	=505
4D 4AA 4FF# 4DD/	2ddd 2ff# 2dd/	.
4r	.	.
*	*X8va	*
[>2D [>2AA [<2FF# [<2DD/	2r	.
=506	=506	=506
1D_> 1AA_> 1FF#_< 1DD_<	8ddd\L	.
.	8fff#\J	.
.	4aa\	.
.	8aa\L	.
.	8ddd\J	.
.	4ff#\	.
=507	=507	=507
4D] 4AA] 4FF#] 4DD/]	2ff#\	.
4r	.	.
[>2D [>2AA [<2FF# [<2DD/	2r	.
!!LO:LB:g=original
=508	=508	=508
1D_> 1AA_> 1FF#_< 1DD_<	8ff#\L	.
.	8aa\J	.
.	4dd\	.
.	8dd\L	.
.	8ff#\J	.
.	4a/	.
=509	=509	=509
4D] 4AA] 4FF#] 4DD/]	2dd\	.
4r	.	.
[>2D [>2AA [<2FF# [<2DD/	2r	.
=510	=510	=510
1D_> 1AA_> 1FF#_< 1DD_<	8dd\L	.
.	8ff#\J	.
.	4a/	.
.	8a\L	.
.	8dd\J	.
.	4f#/	.
=511	=511	=511
4D] 4AA] 4FF#] 4DD/]	2f#/	.
4r	.	.
[>2D [>2AA [<2FF# [<2DD/	2r	.
=512	=512	=512
1D_> 1AA_> 1FF#_< 1DD_<	8f#/L	.
.	8a/J	.
.	4d/	.
.	8d/L	.
.	8f#/J	.
.	4A/	.
=513	=513	=513
4D] 4AA] 4FF#] 4DD/]	4d/	.
4r	4r	.
*	*8va	*
2GG 2GGG/	2ddd 2bb-X 2gg 2dd/	sf
=514	=514	=514
2D 2DD/	2ddd 2aa 2ff# 2dd/	sf
2GG 2GGG/	2ddd 2bbn 2gg 2dd/	sf
=515	=515	=515
2D 2DD/	2ddd 2aa 2ff# 2dd/	sf
2GG 2GGG/	2ddd 2bb-X 2gg 2dd/	sf
=516	=516	=516
2D 2DD/	2ddd 2aa 2ff# 2dd/	sf
2GG 2GGG/	2ddd 2bbn 2gg 2dd/	sf
!!LO:LB:g=original
=517	=517	=517
4D 4DD/	4ddd 4aa 4ff# 4dd/	.
*	*X8va	*
4r	4r	.
!	!	!LO:DY:b:rj
(>8f#\L	(>8fff#\L	ff
8fn\	8fffn\	.
8e\	8eee\	.
8e-X\J	8eee-X\J	.
=518	=518	=518
8d\L	8ddd\L	.
8c#\	8ccc#\	.
8cn\	8cccn\	.
8B\J	8bb\J	.
8B-X\L	8bb-X\L	.
8A\	8aa\	.
8G#X\	8gg#X\	.
8Gn\J)	8ggn\J)	.
=519	=519	=519
(>8F#\L	(>8ff#\L	.
8Fn\	8ffn\	.
8E\	8ee\	.
8E-X\J	8ee-X\J	.
8D/L	8dd\L	.
8C#/	8cc#\	.
8Cn/	8ccn\	.
8BB/J	8b\J	.
=520	=520	=520
8BB-X/L	8b-X/L	.
8AA/	8a/	.
8GG#X/	8g#X/	.
8GGn/J	8gn/J	.
8FF#/L	8f#/L	.
8FFn/	8fn/	.
8EE/	8e/	.
8EE-X/J)	8e-X/J)	.
=521	=521	=521
*tremolo	*	*
16DD/LL	4d/	ff
16CC#/	.	.
16DD/	.	.
16CC#/	.	.
16DD/	4r	.
16CC#/	.	.
16DD/	.	.
16CC#/JJ	.	.
16DD/LL	2r	.
16CC#/	.	.
16DD/	.	.
16CC#/	.	.
16DD/	.	.
16CC#/	.	.
16DD/	.	.
16CC#/JJ	.	.
=522	=522	=522
16DD/LL	2fff# 2ddd 2aa\	.
16CC#/	.	.
16DD/	.	.
16CC#/	.	.
16DD/	.	.
16CC#/	.	.
16DD/	.	.
16CC#/JJ	.	.
16DD/LL	4r	.
16CC#/	.	.
16DD/	.	.
16CC#/	.	.
16DD/	8r	.
16CC#/	.	.
16DD/	8dd 8a 8f# 8d/	.
16CC#/JJ	.	.
*Xtremolo	*	*
=523	=523	=523
!	!LO:TX:b:B:t=Fine	!
1DD 1DDD;<	1dd 1a 1f# 1d;>	.
==	==	==
*-	*-	*-
!!title: @{OTL};
!!!RDF**kern: > = above
!!!RDF**kern: < = below
!!!RDF**dynam: > = "dimin", fontstyle= "bold-italic"
!!!RDF**dynam: < = "cres", fontstyle= "bold-italic"
!!!RDF**kern: | = vertical stroke
!!!RDF**kern: N = linked
!!!RDF**kern: i = editorial accidental
!!!RDF**kern: l = terminal long
!!!ENC: Filip Voros
!!!END: 2022-09-11
!!!EED: Wojciech Jakubiak-Danek
!!!EST: 2022-09-18
!!!URL-scan: https://polish.musicsources.pl/pl/lokalizacje/galeria/druki-muzyczne/11863-monbar-czyli-flibustierowie/4 @EN{Scan on Polish Music Sources Website} @PL{Skany w portalu Dziedzictwo Muzyki Polskiej w otwartym dostępie}
!!!ONB-nifc: Skany 0004-0011!!!YEC: Copyright 2022 Narodowy Instytut Fryderyka Chopina (https://polishscores.org)
!!!YEM: License CC-BY-4.0 (https://creativecommons.org/licenses/by/4.0)
